;FLAVOR:Marlin
;TIME:7749
;Filament used: 6.85594m
;Layer height: 0.16
;MINX:56.8
;MINY:56.8
;MINZ:0.2
;MAXX:168.2
;MAXY:174.8
;MAXZ:5.8
;Generated with Creality Slicer 4.8.2-205
M140 S70
M105
M190 S70
M104 S210
M105
M109 S210
M82 ;absolute extrusion mode

G28 ;Home

G92 E0 ;Reset Extruder
G1 Z2.0 F3000 ;Move Z Axis up
G1 X10.1 Y20 Z0.28 F5000.0 ;Move to start position
G1 X10.1 Y200.0 Z0.28 F1500.0 E15 ;Draw the first line
G1 X10.4 Y200.0 Z0.28 F5000.0 ;Move to side a little
G1 X10.4 Y20 Z0.28 F1500.0 E30 ;Draw the second line
G92 E0 ;Reset Extruder
G1 Z2.0 F3000 ;Move Z Axis up

G92 E0
G92 E0
G1 F1500 E-5
;LAYER_COUNT:31
;LAYER:0
M107
G0 F6000 X86.368 Y62.794 Z0.2
;TYPE:SKIRT
G1 F1500 E0
G1 F1200 X87.024 Y61.998 E0.05146
G1 X87.411 Y61.584 E0.07973
G1 X87.554 Y61.437 E0.08997
G1 X87.797 Y61.193 E0.10715
G1 X87.964 Y61.03 E0.11879
G1 X88.73 Y60.339 E0.17026
G1 X89.876 Y59.482 E0.24165
G1 X90.041 Y59.372 E0.25154
G1 X90.569 Y59.038 E0.28271
G1 X90.787 Y58.907 E0.2954
G1 X91.69 Y58.41 E0.34682
G1 X92.951 Y57.86 E0.41546
G1 X93.121 Y57.796 E0.42452
G1 X93.632 Y57.615 E0.45157
G1 X93.88 Y57.533 E0.4646
G1 X94.871 Y57.248 E0.51605
G1 X96.245 Y56.985 E0.58584
G1 X96.427 Y56.96 E0.595
G1 X96.991 Y56.894 E0.62333
G1 X97.278 Y56.867 E0.63772
G1 X98.35 Y56.81 E0.69127
G1 X99.213 Y56.8 E0.73433
G1 X105.793 Y56.8 E1.06261
G1 X106.687 Y56.811 E1.10721
G1 X107.064 Y56.822 E1.12603
G1 X108.321 Y56.877 E1.1888
G1 X108.928 Y56.911 E1.21913
G1 X111.387 Y56.978 E1.34186
G1 X113.801 Y56.976 E1.46229
G1 X117.711 Y56.833 E1.6575
G1 X118.1 Y56.816 E1.67692
G1 X118.446 Y56.806 E1.69419
G1 X118.83 Y56.8 E1.71335
G1 X125.984 Y56.801 E2.07027
G1 X126.682 Y56.811 E2.10509
G1 X127.734 Y56.868 E2.15765
G1 X127.947 Y56.888 E2.16833
G1 X128.394 Y56.938 E2.19077
G1 X128.636 Y56.969 E2.20294
G1 X129.653 Y57.139 E2.25438
G1 X130.654 Y57.388 E2.30584
G1 X131.171 Y57.55 E2.33287
G1 X131.368 Y57.616 E2.34324
G1 X131.748 Y57.75 E2.36334
G1 X131.981 Y57.836 E2.37573
G1 X132.934 Y58.23 E2.42718
G1 X134.266 Y58.937 E2.50242
G1 X134.408 Y59.023 E2.5107
G1 X134.791 Y59.264 E2.53327
G1 X135.013 Y59.409 E2.5465
G1 X135.854 Y60.006 E2.59796
G1 X136.983 Y60.98 E2.67235
G1 X137.132 Y61.124 E2.68269
G1 X137.431 Y61.423 E2.70378
G1 X137.598 Y61.595 E2.71574
G1 X138.287 Y62.362 E2.76718
G1 X139.172 Y63.557 E2.84137
G1 X139.285 Y63.729 E2.85164
G1 X139.434 Y63.962 E2.86543
G1 X140.874 Y66.256 E3.00056
G1 X142.214 Y68.262 E3.12092
G1 X143.665 Y70.308 E3.24606
G1 X145.106 Y72.221 E3.36554
G1 X146.655 Y74.161 E3.4894
G1 X148.253 Y76.051 E3.61288
G1 X149.862 Y77.846 E3.73314
G1 X151.558 Y79.636 E3.85616
G1 X153.294 Y81.367 E3.97847
G1 X155.087 Y83.057 E4.1014
G1 X156.909 Y84.678 E4.22306
G1 X158.674 Y86.166 E4.33824
G1 X159.29 Y86.673 E4.37804
G1 X160.071 Y87.368 E4.4302
G1 X160.208 Y87.5 E4.43969
G1 X160.465 Y87.755 E4.45775
G1 X160.637 Y87.93 E4.47
G1 X161.331 Y88.693 E4.52145
G1 X161.964 Y89.508 E4.57294
G1 X162.259 Y89.937 E4.59891
G1 X162.369 Y90.104 E4.60889
G1 X162.667 Y90.577 E4.63678
G1 X162.799 Y90.797 E4.64958
G1 X163.295 Y91.701 E4.70102
G1 X163.835 Y92.937 E4.76831
G1 X163.897 Y93.101 E4.77706
G1 X164.093 Y93.658 E4.80652
G1 X164.176 Y93.911 E4.81981
G1 X164.46 Y94.903 E4.87128
G1 X164.713 Y96.227 E4.93853
G1 X164.738 Y96.407 E4.9476
G1 X164.799 Y96.929 E4.97382
G1 X164.825 Y97.192 E4.98701
G1 X164.889 Y98.313 E5.04302
G1 X164.9 Y99.212 E5.08788
G1 X164.9 Y105.667 E5.40992
G1 X164.937 Y108.249 E5.53875
G1 X165.039 Y110.673 E5.65979
G1 X165.215 Y113.149 E5.78363
G1 X165.456 Y115.584 E5.90571
G1 X165.763 Y117.977 E6.02607
G1 X166.15 Y120.438 E6.15036
G1 X166.596 Y122.839 E6.2722
G1 X167.101 Y125.186 E6.39197
G1 X167.412 Y126.43 E6.45594
G1 X167.462 Y126.67 E6.46817
G1 X167.767 Y127.929 E6.5328
G1 X168.023 Y129.299 E6.60233
G1 X168.047 Y129.479 E6.61139
G1 X168.099 Y129.924 E6.63375
G1 X168.125 Y130.186 E6.64688
G1 X168.189 Y131.312 E6.70315
G1 X168.2 Y132.212 E6.74805
G1 X168.199 Y138.953 E7.08436
G1 X168.189 Y139.672 E7.12024
G1 X168.178 Y140.046 E7.1389
G1 X168.123 Y141.321 E7.20257
G1 X168.089 Y141.928 E7.2329
G1 X168.022 Y144.387 E7.35563
G1 X168.024 Y146.796 E7.47581
G1 X168.167 Y150.711 E7.67127
G1 X168.184 Y151.1 E7.69069
G1 X168.194 Y151.446 E7.70796
G1 X168.2 Y151.83 E7.72712
G1 X168.199 Y158.984 E8.08404
G1 X168.189 Y159.682 E8.11886
G1 X168.135 Y160.701 E8.16977
G1 X168.117 Y160.898 E8.17964
G1 X168.069 Y161.338 E8.20172
G1 X168.04 Y161.57 E8.21339
G1 X167.909 Y162.403 E8.25546
G1 X167.68 Y163.409 E8.30693
G1 X167.454 Y164.158 E8.34596
G1 X167.295 Y164.625 E8.37057
G1 X167.222 Y164.829 E8.38138
G1 X166.838 Y165.786 E8.43283
G1 X166.193 Y167.041 E8.50323
G1 X166.094 Y167.211 E8.51304
G1 X165.744 Y167.779 E8.54633
G1 X165.6 Y168 E8.55949
G1 X165.004 Y168.841 E8.61091
G1 X164.057 Y169.944 E8.68344
G1 X163.917 Y170.09 E8.69353
G1 X163.61 Y170.4 E8.7153
G1 X163.439 Y170.567 E8.72722
G1 X162.673 Y171.259 E8.77872
G1 X161.524 Y172.118 E8.8503
G1 X161.359 Y172.228 E8.86019
G1 X160.831 Y172.562 E8.89136
G1 X160.613 Y172.693 E8.90405
G1 X159.71 Y173.19 E8.95547
G1 X158.466 Y173.734 E9.02321
G1 X158.302 Y173.796 E9.03196
G1 X157.775 Y173.982 E9.05984
G1 X157.521 Y174.066 E9.07319
G1 X156.53 Y174.352 E9.12465
G1 X155.155 Y174.615 E9.19449
G1 X154.973 Y174.64 E9.20365
G1 X154.409 Y174.706 E9.23198
G1 X154.122 Y174.733 E9.24637
G1 X153.05 Y174.79 E9.29992
G1 X152.187 Y174.8 E9.34298
G1 X132.016 Y174.799 E10.34932
G1 X131.318 Y174.789 E10.38414
G1 X130.266 Y174.732 E10.4367
G1 X130.053 Y174.712 E10.44738
G1 X129.654 Y174.668 E10.46741
G1 X129.437 Y174.641 E10.47831
G1 X128.717 Y174.532 E10.51464
G1 X128.316 Y174.46 E10.53497
G1 X125.752 Y174.025 E10.66472
G1 X123.377 Y173.691 E10.78437
G1 X120.907 Y173.415 E10.90837
G1 X118.466 Y173.211 E11.03057
G1 X116.025 Y173.078 E11.15254
G1 X113.585 Y173.013 E11.27431
G1 X111.121 Y173.018 E11.39724
G1 X108.658 Y173.092 E11.52018
G1 X106.217 Y173.234 E11.64217
G1 X103.801 Y173.444 E11.76315
G1 X101.327 Y173.73 E11.8874
G1 X98.904 Y174.079 E12.00954
G1 X96.804 Y174.437 E12.11582
G1 X96.251 Y174.537 E12.14385
G1 X95.46 Y174.656 E12.18376
G1 X95.012 Y174.705 E12.20625
G1 X94.726 Y174.732 E12.22058
G1 X93.65 Y174.79 E12.27434
G1 X92.788 Y174.8 E12.31735
G1 X72.616 Y174.799 E13.32373
G1 X71.918 Y174.789 E13.35856
G1 X70.866 Y174.732 E13.41112
G1 X70.653 Y174.712 E13.42179
G1 X70.22 Y174.664 E13.44353
G1 X69.976 Y174.633 E13.4558
G1 X68.958 Y174.463 E13.50729
G1 X67.957 Y174.216 E13.55873
G1 X67.408 Y174.044 E13.58743
G1 X67.212 Y173.978 E13.59775
G1 X66.851 Y173.85 E13.61686
G1 X66.618 Y173.764 E13.62925
G1 X65.665 Y173.37 E13.6807
G1 X64.745 Y172.903 E13.73217
G1 X64.262 Y172.62 E13.7601
G1 X63.856 Y172.366 E13.78399
G1 X63.632 Y172.221 E13.7973
G1 X62.788 Y171.627 E13.84879
G1 X61.993 Y170.97 E13.90025
G1 X61.576 Y170.58 E13.92873
G1 X61.418 Y170.426 E13.93974
G1 X61.151 Y170.159 E13.95858
G1 X60.993 Y169.996 E13.9699
G1 X60.305 Y169.228 E14.02135
G1 X59.445 Y168.068 E14.09339
G1 X59.34 Y167.909 E14.1029
G1 X59.056 Y167.461 E14.12936
G1 X58.923 Y167.241 E14.14218
G1 X58.424 Y166.338 E14.19366
G1 X57.816 Y164.933 E14.27003
G1 X57.749 Y164.75 E14.27976
G1 X57.604 Y164.334 E14.30174
G1 X57.527 Y164.1 E14.31403
G1 X57.243 Y163.109 E14.36546
G1 X56.987 Y161.773 E14.43332
G1 X56.962 Y161.593 E14.44239
G1 X56.894 Y161.009 E14.47172
G1 X56.867 Y160.722 E14.4861
G1 X56.81 Y159.65 E14.53966
G1 X56.8 Y158.788 E14.58267
G1 X56.801 Y152.019 E14.92038
G1 X56.811 Y151.312 E14.95565
G1 X56.822 Y150.934 E14.97452
G1 X56.877 Y149.679 E15.03719
G1 X56.911 Y149.072 E15.06752
G1 X56.978 Y146.613 E15.19025
G1 X56.976 Y144.198 E15.31073
G1 X56.833 Y140.289 E15.50588
G1 X56.816 Y139.901 E15.52526
G1 X56.806 Y139.556 E15.54248
G1 X56.8 Y139.169 E15.56179
G1 X56.802 Y131.993 E15.9198
G1 X56.812 Y131.303 E15.95423
G1 X56.872 Y130.223 E16.00819
G1 X56.897 Y129.963 E16.02122
G1 X56.958 Y129.442 E16.04739
G1 X56.984 Y129.251 E16.05701
G1 X57.247 Y127.866 E16.12734
G1 X57.564 Y126.578 E16.19352
G1 X57.603 Y126.426 E16.20135
G1 X58.154 Y124.031 E16.32396
G1 X58.637 Y121.624 E16.44644
G1 X59.054 Y119.188 E16.56974
G1 X59.398 Y116.774 E16.69139
G1 X59.673 Y114.346 E16.8133
G1 X59.881 Y111.906 E16.93547
G1 X60.018 Y109.488 E17.0563
G1 X60.1 Y105.643 E17.24817
G1 X60.102 Y98.995 E17.57984
G1 X60.112 Y98.304 E17.61432
G1 X60.172 Y97.223 E17.66833
G1 X60.197 Y96.963 E17.68136
G1 X60.385 Y95.673 E17.7464
G1 X60.439 Y95.398 E17.76038
G1 X60.677 Y94.395 E17.81181
G1 X60.968 Y93.477 E17.85986
G1 X61.079 Y93.167 E17.87629
G1 X61.465 Y92.211 E17.92772
G1 X62.095 Y90.979 E17.99676
G1 X62.193 Y90.81 E18.0065
G1 X62.526 Y90.267 E18.03828
G1 X62.67 Y90.044 E18.05153
G1 X63.263 Y89.2 E18.10299
G1 X63.919 Y88.405 E18.15441
G1 X64.321 Y87.974 E18.18381
G1 X64.478 Y87.813 E18.19503
G1 X64.746 Y87.545 E18.21394
G1 X64.906 Y87.39 E18.22506
G1 X65.731 Y86.655 E18.28018
G1 X66.234 Y86.243 E18.31262
G1 X68.236 Y84.553 E18.44333
G1 X70.032 Y82.947 E18.56353
G1 X71.811 Y81.266 E18.68564
G1 X73.556 Y79.519 E18.80883
G1 X75.239 Y77.737 E18.93112
G1 X76.851 Y75.929 E19.05196
G1 X78.464 Y74.016 E19.1768
G1 X79.988 Y72.098 E19.29902
G1 X81.462 Y70.133 E19.42157
G1 X82.855 Y68.162 E19.54199
G1 X84.229 Y66.096 E19.66577
G1 X85.647 Y63.835 E19.79892
G1 X85.775 Y63.637 E19.81068
G1 X86.368 Y62.794 E19.86211
G0 F6000 X86.859 Y63.139
G1 F1200 X87.841 Y62.002 E19.93706
G1 X87.984 Y61.855 E19.94729
G1 X88.216 Y61.623 E19.96366
G1 X88.383 Y61.46 E19.9753
G1 X89.132 Y60.785 E20.0256
G1 X90.209 Y59.981 E20.09266
G1 X90.374 Y59.871 E20.10255
G1 X90.878 Y59.552 E20.13231
G1 X91.096 Y59.421 E20.145
G1 X91.979 Y58.937 E20.19523
G1 X93.162 Y58.421 E20.25962
G1 X93.332 Y58.357 E20.26869
G1 X93.82 Y58.185 E20.2945
G1 X94.068 Y58.103 E20.30753
G1 X95.037 Y57.825 E20.35783
G1 X96.327 Y57.579 E20.42334
G1 X96.509 Y57.554 E20.43251
G1 X97.047 Y57.492 E20.45953
G1 X97.334 Y57.465 E20.47391
G1 X98.358 Y57.41 E20.52507
G1 X99.213 Y57.4 E20.56773
G1 X105.793 Y57.4 E20.89601
G1 X106.679 Y57.411 E20.94021
G1 X107.039 Y57.421 E20.95818
G1 X108.12 Y57.467 E21.01216
G1 X108.914 Y57.511 E21.05184
G1 X111.371 Y57.578 E21.17446
G1 X113.796 Y57.576 E21.29544
G1 X117.745 Y57.431 E21.49259
G1 X118.117 Y57.415 E21.51117
G1 X118.463 Y57.405 E21.52844
G1 X118.83 Y57.4 E21.54675
G1 X125.975 Y57.401 E21.90322
G1 X126.673 Y57.411 E21.93804
G1 X127.678 Y57.466 E21.98826
G1 X127.891 Y57.486 E21.99893
G1 X128.318 Y57.533 E22.02036
G1 X128.56 Y57.564 E22.03254
G1 X129.553 Y57.732 E22.08278
G1 X130.98 Y58.119 E22.15655
G1 X131.177 Y58.185 E22.16691
G1 X131.541 Y58.313 E22.18616
G1 X131.774 Y58.399 E22.19855
G1 X132.704 Y58.785 E22.24879
G1 X133.955 Y59.45 E22.31947
G1 X134.097 Y59.536 E22.32775
G1 X134.463 Y59.766 E22.34932
G1 X134.685 Y59.911 E22.36255
G1 X135.506 Y60.495 E22.41281
G1 X136.566 Y61.412 E22.48274
G1 X136.715 Y61.556 E22.49308
G1 X137.001 Y61.841 E22.51322
G1 X137.168 Y62.013 E22.52518
G1 X137.84 Y62.763 E22.57542
G1 X138.67 Y63.887 E22.64513
G1 X138.926 Y64.281 E22.66857
G1 X140.371 Y66.584 E22.80421
G1 X141.725 Y68.61 E22.92578
G1 X143.175 Y70.654 E23.05081
G1 X144.633 Y72.59 E23.17173
G1 X146.186 Y74.535 E23.2959
G1 X147.79 Y76.431 E23.4198
G1 X149.44 Y78.273 E23.54318
G1 X151.122 Y80.049 E23.66521
G1 X152.902 Y81.822 E23.79056
G1 X154.664 Y83.484 E23.9114
G1 X156.529 Y85.143 E24.03593
G1 X158.242 Y86.588 E24.14774
G1 X158.909 Y87.136 E24.1908
G1 X159.655 Y87.8 E24.24063
G1 X159.792 Y87.932 E24.25012
G1 X160.038 Y88.176 E24.26741
G1 X160.21 Y88.351 E24.27965
G1 X160.887 Y89.097 E24.32991
G1 X161.758 Y90.267 E24.40268
G1 X161.868 Y90.434 E24.41265
G1 X162.152 Y90.886 E24.43929
G1 X162.284 Y91.106 E24.45209
G1 X162.768 Y91.99 E24.50237
G1 X163.273 Y93.149 E24.56544
G1 X163.335 Y93.313 E24.57419
G1 X163.523 Y93.845 E24.60234
G1 X163.606 Y94.098 E24.61562
G1 X163.882 Y95.067 E24.66589
G1 X164.118 Y96.31 E24.72901
G1 X164.143 Y96.49 E24.73808
G1 X164.202 Y96.988 E24.7631
G1 X164.228 Y97.251 E24.77628
G1 X164.289 Y98.322 E24.8298
G1 X164.3 Y99.212 E24.87421
G1 X164.3 Y105.675 E25.19665
G1 X164.336 Y108.247 E25.32498
G1 X164.442 Y110.743 E25.44961
G1 X164.615 Y113.177 E25.57135
G1 X164.86 Y115.649 E25.69529
G1 X165.171 Y118.076 E25.81736
G1 X165.557 Y120.537 E25.94164
G1 X166.004 Y122.938 E26.06348
G1 X166.52 Y125.335 E26.18581
G1 X166.83 Y126.576 E26.24963
G1 X166.877 Y126.802 E26.26114
G1 X167.184 Y128.07 E26.32623
G1 X167.429 Y129.379 E26.39267
G1 X167.453 Y129.559 E26.40173
G1 X167.502 Y129.983 E26.42303
G1 X167.528 Y130.245 E26.43616
G1 X167.589 Y131.321 E26.48993
G1 X167.6 Y132.212 E26.53439
G1 X167.599 Y138.945 E26.8703
G1 X167.589 Y139.664 E26.90617
G1 X167.579 Y140.021 E26.92399
G1 X167.533 Y141.114 E26.97857
G1 X167.489 Y141.914 E27.01854
G1 X167.422 Y144.371 E27.14117
G1 X167.424 Y146.796 E27.26215
G1 X167.569 Y150.745 E27.4593
G1 X167.585 Y151.117 E27.47787
G1 X167.595 Y151.463 E27.49514
G1 X167.6 Y151.83 E27.51345
G1 X167.599 Y158.975 E27.86992
G1 X167.589 Y159.673 E27.90475
G1 X167.537 Y160.647 E27.95341
G1 X167.519 Y160.844 E27.96328
G1 X167.474 Y161.263 E27.9843
G1 X167.445 Y161.495 E27.99597
G1 X167.319 Y162.292 E28.03622
G1 X167.095 Y163.275 E28.08652
G1 X166.885 Y163.968 E28.12265
G1 X166.73 Y164.423 E28.14663
G1 X166.657 Y164.627 E28.15744
G1 X166.281 Y165.562 E28.20772
G1 X165.675 Y166.739 E28.27377
G1 X165.576 Y166.909 E28.28358
G1 X165.242 Y167.451 E28.31534
G1 X165.098 Y167.672 E28.3285
G1 X164.514 Y168.494 E28.37881
G1 X163.624 Y169.529 E28.44691
G1 X163.484 Y169.675 E28.457
G1 X163.19 Y169.971 E28.47782
G1 X163.019 Y170.138 E28.48974
G1 X162.271 Y170.813 E28.54001
G1 X161.191 Y171.619 E28.60724
G1 X161.026 Y171.729 E28.61713
G1 X160.522 Y172.048 E28.64689
G1 X160.304 Y172.179 E28.65958
G1 X159.421 Y172.663 E28.70982
G1 X158.254 Y173.172 E28.77333
G1 X158.09 Y173.234 E28.78208
G1 X157.587 Y173.413 E28.80872
G1 X157.333 Y173.497 E28.82207
G1 X156.364 Y173.775 E28.87236
G1 X155.073 Y174.021 E28.93793
G1 X154.891 Y174.046 E28.94709
G1 X154.353 Y174.108 E28.97411
G1 X154.066 Y174.135 E28.98849
G1 X153.042 Y174.19 E29.03965
G1 X152.187 Y174.2 E29.08231
G1 X132.025 Y174.199 E30.0882
G1 X131.327 Y174.189 E30.12303
G1 X130.322 Y174.134 E30.17324
G1 X130.109 Y174.114 E30.18391
G1 X129.728 Y174.073 E30.20303
G1 X129.511 Y174.046 E30.21394
G1 X128.824 Y173.941 E30.24861
G1 X128.425 Y173.869 E30.26884
G1 X125.866 Y173.435 E30.39833
G1 X123.423 Y173.091 E30.52142
G1 X120.988 Y172.819 E30.64366
G1 X118.514 Y172.613 E30.76751
G1 X116.074 Y172.48 E30.88942
G1 X113.565 Y172.413 E31.01464
G1 X111.102 Y172.418 E31.13752
G1 X108.64 Y172.492 E31.26041
G1 X106.204 Y172.634 E31.38215
G1 X103.713 Y172.85 E31.50689
G1 X101.242 Y173.136 E31.63099
G1 X98.834 Y173.482 E31.75236
G1 X96.694 Y173.848 E31.86068
G1 X96.144 Y173.947 E31.88856
G1 X95.389 Y174.06 E31.92664
G1 X94.956 Y174.108 E31.94838
G1 X94.67 Y174.135 E31.96271
G1 X93.642 Y174.19 E32.01407
G1 X92.788 Y174.2 E32.05668
G1 X72.625 Y174.199 E33.06262
G1 X71.927 Y174.189 E33.09744
G1 X70.922 Y174.134 E33.14766
G1 X70.709 Y174.114 E33.15833
G1 X70.295 Y174.069 E33.17911
G1 X70.051 Y174.038 E33.19138
G1 X69.057 Y173.871 E33.24166
G1 X68.08 Y173.626 E33.29192
G1 X67.599 Y173.475 E33.31707
G1 X67.403 Y173.409 E33.32739
G1 X67.058 Y173.287 E33.34564
G1 X66.825 Y173.201 E33.35803
G1 X65.895 Y172.815 E33.40827
G1 X64.576 Y172.108 E33.48293
G1 X64.182 Y171.862 E33.50611
G1 X63.958 Y171.717 E33.51942
G1 X63.134 Y171.137 E33.56969
G1 X61.995 Y170.151 E33.64485
G1 X61.837 Y169.997 E33.65586
G1 X61.582 Y169.741 E33.67388
G1 X61.424 Y169.578 E33.68521
G1 X60.752 Y168.827 E33.73549
G1 X59.945 Y167.737 E33.80315
G1 X59.84 Y167.578 E33.81266
G1 X59.57 Y167.15 E33.8379
G1 X59.437 Y166.93 E33.85073
G1 X58.95 Y166.048 E33.90099
G1 X58.379 Y164.726 E33.97284
G1 X58.312 Y164.543 E33.98256
G1 X58.174 Y164.147 E34.00348
G1 X58.097 Y163.913 E34.01577
G1 X57.821 Y162.944 E34.06604
G1 X57.582 Y161.69 E34.12973
G1 X57.557 Y161.51 E34.13879
G1 X57.492 Y160.953 E34.16677
G1 X57.465 Y160.666 E34.18115
G1 X57.41 Y159.642 E34.23231
G1 X57.4 Y158.788 E34.27492
G1 X57.401 Y152.027 E34.61223
G1 X57.411 Y151.32 E34.64751
G1 X57.422 Y150.96 E34.66547
G1 X57.476 Y149.712 E34.7278
