;FLAVOR:Marlin
;TIME:13466
;Filament used: 10.0626m
;Layer height: 0.16
;MINX:44.21
;MINY:72.032
;MINZ:0.2
;MAXX:146.449
;MAXY:175.8
;MAXZ:40
;Generated with Creality Slicer 4.8.2-205
M140 S70
M105
M190 S70
M104 S210
M105
M109 S210
M82 ;absolute extrusion mode

G28 ;Home

G92 E0 ;Reset Extruder
G1 Z2.0 F3000 ;Move Z Axis up
G1 X10.1 Y20 Z0.28 F5000.0 ;Move to start position
G1 X10.1 Y200.0 Z0.28 F1500.0 E15 ;Draw the first line
G1 X10.4 Y200.0 Z0.28 F5000.0 ;Move to side a little
G1 X10.4 Y20 Z0.28 F1500.0 E30 ;Draw the second line
G92 E0 ;Reset Extruder
G1 Z2.0 F3000 ;Move Z Axis up

G92 E0
G92 E0
G1 F1500 E-5
;LAYER_COUNT:253
;LAYER:0
M107
G0 F6000 X54.056 Y81.007 Z0.2
;TYPE:SKIRT
G1 F1500 E0
G1 F1200 X55.081 Y80.38 E0.05995
G1 X55.84 Y79.962 E0.10318
G1 X56.338 Y79.697 E0.13132
G1 X56.938 Y79.387 E0.16501
G1 X57.744 Y79.004 E0.20953
G1 X59.036 Y78.517 E0.27842
G1 X59.86 Y78.256 E0.32154
G1 X60.35 Y78.109 E0.34706
G1 X61.065 Y77.903 E0.38419
G1 X62.066 Y77.656 E0.43562
G1 X63.252 Y77.467 E0.49554
G1 X63.924 Y77.391 E0.52928
G1 X64.622 Y77.321 E0.56428
G1 X67.174 Y77.032 E0.69241
G1 X69.577 Y76.691 E0.8135
G1 X72.023 Y76.272 E0.93731
G1 X74.418 Y75.794 E1.05915
G1 X76.825 Y75.241 E1.18237
G1 X79.172 Y74.631 E1.30335
G1 X81.547 Y73.943 E1.42671
G1 X83.92 Y73.18 E1.55107
G1 X85.054 Y72.789 E1.61091
G1 X85.638 Y72.602 E1.64151
G1 X86.637 Y72.344 E1.69298
G1 X87.652 Y72.164 E1.74441
G1 X89.085 Y72.046 E1.81614
G1 X89.404 Y72.037 E1.83207
G1 X89.779 Y72.032 E1.85078
G1 X132.442 Y72.032 E3.97924
G1 X133.331 Y72.043 E4.0236
G1 X134.36 Y72.098 E4.07501
G1 X135.383 Y72.232 E4.12648
G1 X136.392 Y72.446 E4.17794
G1 X137.381 Y72.736 E4.22936
G1 X138.345 Y73.103 E4.28082
G1 X139.278 Y73.543 E4.33229
G1 X140.174 Y74.054 E4.38375
G1 X141.027 Y74.633 E4.43518
G1 X141.833 Y75.276 E4.48662
G1 X142.587 Y75.98 E4.53808
G1 X143.284 Y76.74 E4.58953
G1 X143.92 Y77.552 E4.64099
G1 X144.491 Y78.411 E4.69245
G1 X144.994 Y79.311 E4.74389
G1 X145.426 Y80.248 E4.79536
G1 X145.784 Y81.215 E4.84681
G1 X146.065 Y82.207 E4.89825
G1 X146.269 Y83.218 E4.9497
G1 X146.394 Y84.242 E5.00117
G1 X146.435 Y84.968 E5.03745
G1 X146.444 Y85.288 E5.05342
G1 X146.449 Y85.662 E5.07208
G1 X146.448 Y142.261 E7.89581
G1 X146.439 Y142.988 E7.93209
G1 X146.386 Y144.018 E7.98354
G1 X146.254 Y145.04 E8.03495
G1 X146.043 Y146.05 E8.08643
G1 X145.754 Y147.04 E8.13788
G1 X145.389 Y148.005 E8.18936
G1 X144.951 Y148.938 E8.24078
G1 X144.442 Y149.835 E8.29223
G1 X143.864 Y150.689 E8.34368
G1 X143.222 Y151.497 E8.39517
G1 X142.52 Y152.252 E8.4466
G1 X141.761 Y152.95 E8.49804
G1 X140.951 Y153.588 E8.54949
G1 X140.093 Y154.161 E8.60096
G1 X139.194 Y154.665 E8.65238
G1 X138.258 Y155.099 E8.70385
G1 X137.291 Y155.459 E8.75533
G1 X136.3 Y155.742 E8.80675
G1 X135.289 Y155.948 E8.85822
G1 X134.266 Y156.075 E8.90965
G1 X133.526 Y156.117 E8.94663
G1 X132.403 Y156.15 E9.00268
G1 X129.788 Y156.263 E9.13327
G1 X127.351 Y156.437 E9.25516
G1 X124.926 Y156.681 E9.37675
G1 X122.483 Y156.995 E9.49964
G1 X120.072 Y157.376 E9.62141
G1 X117.638 Y157.83 E9.74494
G1 X115.284 Y158.339 E9.8651
G1 X112.883 Y158.93 E9.98846
G1 X110.545 Y159.577 E10.10949
G1 X108.151 Y160.311 E10.23441
G1 X105.849 Y161.09 E10.35566
G1 X103.527 Y161.949 E10.47917
G1 X101.289 Y162.85 E10.59954
G1 X99.012 Y163.843 E10.72347
G1 X96.809 Y164.878 E10.8449
G1 X94.632 Y165.977 E10.96657
G1 X92.442 Y167.162 E11.0908
G1 X90.35 Y168.371 E11.21134
G1 X88.252 Y169.664 E11.3343
G1 X86.204 Y171.007 E11.45648
G1 X84.178 Y172.421 E11.57974
G1 X84.075 Y172.497 E11.58613
G1 X82.975 Y173.288 E11.65372
G1 X82.115 Y173.857 E11.70517
G1 X81.213 Y174.358 E11.75665
G1 X80.276 Y174.788 E11.80808
G1 X79.308 Y175.143 E11.85952
G1 X78.315 Y175.423 E11.91099
G1 X77.303 Y175.624 E11.96247
G1 X76.279 Y175.747 E12.01392
G1 X75.614 Y175.784 E12.04715
G1 X75.285 Y175.794 E12.06357
G1 X74.881 Y175.8 E12.08373
G1 X70.323 Y175.799 E12.31113
G1 X69.625 Y175.79 E12.34595
G1 X68.595 Y175.737 E12.39741
G1 X67.572 Y175.604 E12.44888
G1 X66.563 Y175.392 E12.50032
G1 X65.573 Y175.103 E12.55177
G1 X64.608 Y174.737 E12.60326
G1 X63.675 Y174.299 E12.65468
G1 X62.778 Y173.789 E12.70616
G1 X61.924 Y173.211 E12.75761
G1 X61.117 Y172.569 E12.80905
G1 X60.362 Y171.866 E12.86052
G1 X59.664 Y171.107 E12.91197
G1 X59.027 Y170.296 E12.96342
G1 X58.455 Y169.438 E13.01486
G1 X57.95 Y168.539 E13.06631
G1 X57.517 Y167.603 E13.11776
G1 X57.158 Y166.636 E13.16922
G1 X56.875 Y165.644 E13.22068
G1 X56.67 Y164.634 E13.2721
G1 X56.543 Y163.61 E13.32358
G1 X56.501 Y162.85 E13.36155
G1 X56.492 Y162.517 E13.37817
G1 X56.487 Y162.158 E13.39609
G1 X56.487 Y149.801 E14.01258
G1 X56.45 Y147.219 E14.14141
G1 X56.347 Y144.788 E14.2628
G1 X56.172 Y142.319 E14.38629
G1 X55.931 Y139.883 E14.50841
G1 X55.624 Y137.49 E14.62878
G1 X55.237 Y135.029 E14.75307
G1 X54.791 Y132.628 E14.8749
G1 X54.275 Y130.23 E14.99728
G1 X53.697 Y127.87 E15.1185
G1 X53.048 Y125.512 E15.24052
G1 X52.318 Y123.127 E15.36495
G1 X51.541 Y120.825 E15.48617
G1 X50.691 Y118.519 E15.60878
G1 X49.776 Y116.241 E15.73125
G1 X48.803 Y114.004 E15.85296
G1 X47.754 Y111.767 E15.97623
G1 X46.738 Y109.739 E16.08939
G1 X46.369 Y109.024 E16.12953
G1 X45.932 Y108.09 E16.18098
G1 X45.515 Y106.96 E16.24107
G1 X45.256 Y106.141 E16.28392
G1 X45.107 Y105.646 E16.30971
G1 X44.901 Y104.93 E16.34688
G1 X44.655 Y103.929 E16.39831
G1 X44.466 Y102.74 E16.45837
G1 X44.371 Y101.885 E16.50129
G1 X44.314 Y101.303 E16.53047
G1 X44.256 Y100.61 E16.56516
G1 X44.21 Y99.58 E16.6166
G1 X44.257 Y98.384 E16.67632
G1 X44.33 Y97.526 E16.71928
G1 X44.388 Y96.952 E16.74806
G1 X44.469 Y96.239 E16.78386
G1 X44.625 Y95.219 E16.83534
G1 X44.903 Y94.062 E16.89471
G1 X45.141 Y93.238 E16.9375
G1 X45.31 Y92.687 E16.96625
G1 X45.514 Y92.044 E16.9999
G1 X45.863 Y91.074 E17.05133
G1 X46.375 Y89.962 E17.11241
G1 X46.797 Y89.147 E17.1582
G1 X47.048 Y88.682 E17.18456
G1 X47.406 Y88.038 E17.22132
G1 X48.231 Y86.738 E17.29814
G1 X48.662 Y86.167 E17.33383
G1 X49.168 Y85.536 E17.37418
G1 X49.527 Y85.101 E17.40232
G1 X50.005 Y84.537 E17.4392
G1 X50.702 Y83.777 E17.49065
G1 X51.58 Y82.966 E17.55028
G1 X52.272 Y82.384 E17.59539
G1 X52.656 Y82.071 E17.62011
G1 X53.225 Y81.618 E17.65639
G1 X54.056 Y81.007 E17.70785
G0 F6000 X54.412 Y81.491
G1 F1200 X55.371 Y80.905 E17.76392
G1 X56.123 Y80.491 E17.80675
G1 X56.613 Y80.23 E17.83445
G1 X57.213 Y79.92 E17.86814
G1 X57.985 Y79.554 E17.91077
G1 X59.218 Y79.089 E17.97651
G1 X60.034 Y78.83 E18.01922
G1 X60.516 Y78.685 E18.04433
G1 X61.231 Y78.479 E18.08146
G1 X62.21 Y78.239 E18.13174
G1 X63.32 Y78.063 E18.18781
G1 X63.992 Y77.987 E18.22155
G1 X64.683 Y77.918 E18.2562
G1 X67.256 Y77.626 E18.38539
G1 X69.688 Y77.281 E18.50794
G1 X72.138 Y76.862 E18.63194
G1 X74.525 Y76.385 E18.75339
G1 X76.939 Y75.831 E18.87695
G1 X79.345 Y75.206 E19.00097
G1 X81.728 Y74.514 E19.12477
G1 X84.095 Y73.754 E19.2488
G1 X85.249 Y73.356 E19.3097
G1 X85.811 Y73.177 E19.33913
G1 X86.787 Y72.926 E19.3894
G1 X87.78 Y72.753 E19.43969
G1 X89.102 Y72.646 E19.50586
G1 X89.421 Y72.637 E19.52178
G1 X89.779 Y72.632 E19.53965
G1 X132.442 Y72.632 E21.66811
G1 X133.322 Y72.643 E21.71202
G1 X134.328 Y72.698 E21.76228
G1 X135.327 Y72.832 E21.81257
G1 X136.312 Y73.045 E21.86285
G1 X137.277 Y73.335 E21.91312
G1 X138.216 Y73.701 E21.9634
G1 X139.123 Y74.14 E22.01367
G1 X139.993 Y74.649 E22.06396
G1 X140.819 Y75.226 E22.11423
G1 X141.597 Y75.867 E22.16452
G1 X142.321 Y76.567 E22.21476
G1 X142.988 Y77.323 E22.26506
G1 X143.593 Y78.129 E22.31534
G1 X144.132 Y78.981 E22.36564
G1 X144.602 Y79.872 E22.41589
G1 X144.999 Y80.798 E22.46616
G1 X145.322 Y81.753 E22.51646
G1 X145.569 Y82.73 E22.56673
G1 X145.736 Y83.724 E22.61702
G1 X145.835 Y84.985 E22.68012
G1 X145.844 Y85.305 E22.69609
G1 X145.849 Y85.662 E22.71391
G1 X145.848 Y142.253 E25.53724
G1 X145.839 Y142.98 E25.57352
G1 X145.787 Y143.987 E25.62382
G1 X145.655 Y144.986 E25.6741
G1 X145.444 Y145.971 E25.72435
G1 X145.155 Y146.937 E25.77466
G1 X144.791 Y147.877 E25.82495
G1 X144.354 Y148.784 E25.87518
G1 X143.846 Y149.655 E25.92548
G1 X143.271 Y150.482 E25.97573
G1 X142.631 Y151.261 E26.02603
G1 X141.932 Y151.987 E26.07631
G1 X141.178 Y152.656 E26.1266
G1 X140.373 Y153.262 E26.17687
G1 X139.523 Y153.803 E26.22714
G1 X138.632 Y154.274 E26.27742
G1 X137.707 Y154.674 E26.3277
G1 X136.753 Y154.998 E26.37796
G1 X135.776 Y155.246 E26.42825
G1 X134.783 Y155.416 E26.47851
G1 X133.509 Y155.518 E26.54228
G1 X132.288 Y155.554 E26.60322
G1 X129.79 Y155.661 E26.72796
G1 X127.283 Y155.841 E26.85336
G1 X124.86 Y156.085 E26.97485
G1 X122.416 Y156.399 E27.09778
G1 X119.944 Y156.789 E27.22264
G1 X117.546 Y157.237 E27.34434
G1 X115.118 Y157.762 E27.46828
G1 X112.749 Y158.344 E27.58998
G1 X110.354 Y159.007 E27.71396
G1 X107.994 Y159.731 E27.83712
G1 X105.628 Y160.532 E27.96174
G1 X103.337 Y161.38 E28.08362
G1 X101.036 Y162.306 E28.20736
G1 X98.77 Y163.294 E28.33069
G1 X96.552 Y164.336 E28.45295
G1 X94.33 Y165.458 E28.57714
G1 X92.18 Y166.621 E28.69909
G1 X90.033 Y167.862 E28.82281
G1 X87.917 Y169.166 E28.94681
G1 X85.864 Y170.513 E29.06932
G1 X83.85 Y171.918 E29.19183
G1 X82.624 Y172.801 E29.26721
G1 X81.784 Y173.356 E29.31744
G1 X80.901 Y173.843 E29.36775
G1 X79.983 Y174.259 E29.41803
G1 X79.035 Y174.6 E29.46829
G1 X78.063 Y174.865 E29.51855
G1 X77.073 Y175.053 E29.56883
G1 X75.596 Y175.184 E29.64281
G1 X75.267 Y175.194 E29.65923
G1 X74.881 Y175.2 E29.67849
G1 X70.33 Y175.199 E29.90554
G1 X69.632 Y175.19 E29.94036
G1 X68.626 Y175.137 E29.99062
G1 X67.627 Y175.004 E30.0409
G1 X66.642 Y174.793 E30.09116
G1 X65.676 Y174.504 E30.14146
G1 X64.736 Y174.14 E30.19175
G1 X63.829 Y173.702 E30.242
G1 X62.959 Y173.193 E30.29229
G1 X62.132 Y172.618 E30.34254
G1 X61.353 Y171.978 E30.39284
G1 X60.627 Y171.279 E30.44312
G1 X59.959 Y170.524 E30.49342
G1 X59.353 Y169.719 E30.54369
G1 X58.813 Y168.868 E30.59397
G1 X58.342 Y167.977 E30.64425
G1 X57.943 Y167.052 E30.69451
G1 X57.619 Y166.097 E30.74482
G1 X57.371 Y165.121 E30.79506
G1 X57.202 Y164.127 E30.84536
G1 X57.101 Y162.834 E30.91007
G1 X57.092 Y162.501 E30.92669
G1 X57.087 Y162.158 E30.9438
G1 X57.087 Y149.793 E31.56069
G1 X57.051 Y147.221 E31.68902
G1 X56.945 Y144.726 E31.81361
G1 X56.772 Y142.291 E31.9354
G1 X56.527 Y139.818 E32.05938
G1 X56.216 Y137.391 E32.18146
G1 X55.83 Y134.93 E32.30574
G1 X55.385 Y132.537 E32.42717
G1 X54.855 Y130.073 E32.55291
G1 X54.28 Y127.729 E32.67332
G1 X53.618 Y125.323 E32.79782
G1 X52.892 Y122.949 E32.92167
G1 X52.111 Y120.637 E33.04342
G1 X51.249 Y118.299 E33.16774
G1 X50.328 Y116.006 E33.29102
G1 X49.339 Y113.733 E33.41469
G1 X48.298 Y111.512 E33.53707
G1 X47.313 Y109.545 E33.64682
G1 X46.902 Y108.749 E33.69151
G1 X46.476 Y107.835 E33.74182
G1 X46.087 Y106.778 E33.79801
G1 X45.83 Y105.967 E33.84046
G1 X45.684 Y105.48 E33.86582
G1 X45.478 Y104.764 E33.90299
G1 X45.238 Y103.786 E33.95323
G1 X45.063 Y102.673 E34.00944
G1 X44.968 Y101.825 E34.05201
G1 X44.912 Y101.253 E34.08069
G1 X44.854 Y100.56 E34.11538
G1 X44.81 Y99.553 E34.16567
G1 X44.855 Y98.434 E34.22154
G1 X44.928 Y97.584 E34.2641
G1 X44.984 Y97.019 E34.29243
G1 X45.065 Y96.306 E34.32823
G1 X45.219 Y95.31 E34.37851
G1 X45.479 Y94.228 E34.43403
G1 X45.715 Y93.412 E34.47641
G1 X45.882 Y92.868 E34.5048
G1 X46.086 Y92.225 E34.53845
G1 X46.428 Y91.278 E34.58869
G1 X46.908 Y90.237 E34.64588
G1 X47.326 Y89.43 E34.69122
G1 X47.573 Y88.973 E34.71714
G1 X47.931 Y88.329 E34.7539
G1 X48.718 Y87.088 E34.82721
G1 X49.131 Y86.542 E34.86136
G1 X49.632 Y85.916 E34.90137
G1 X49.85 Y85.65 E34.91852
G1 X50.463 Y84.925 E34.96589
G1 X51.144 Y84.182 E35.01617
G1 X51.966 Y83.425 E35.07192
G1 X52.653 Y82.848 E35.11668
G1 X53.03 Y82.54 E35.14097
G1 X53.599 Y82.087 E35.17726
G1 X54.412 Y81.491 E35.22755
G0 F6000 X54.766 Y81.976
G1 F1200 X55.661 Y81.43 E35.27985
G1 X56.406 Y81.02 E35.32228
G1 X56.889 Y80.763 E35.34958
G1 X57.489 Y80.453 E35.38327
G1 X58.225 Y80.103 E35.42393
G1 X59.4 Y79.66 E35.48658
G1 X60.208 Y79.404 E35.52886
G1 X60.682 Y79.262 E35.55355
G1 X61.397 Y79.056 E35.59067
G1 X62.353 Y78.822 E35.63978
G1 X63.387 Y78.66 E35.69199
G1 X64.228 Y78.566 E35.73421
G1 X64.743 Y78.515 E35.76003
G1 X67.334 Y78.221 E35.89012
G1 X69.769 Y77.876 E36.01282
G1 X72.246 Y77.452 E36.1382
G1 X74.672 Y76.967 E36.26162
G1 X77.087 Y76.412 E36.38525
G1 X79.517 Y75.781 E36.5105
G1 X81.868 Y75.099 E36.63263
G1 X84.299 Y74.318 E36.76002
G1 X85.445 Y73.923 E36.82049
G1 X85.983 Y73.751 E36.84867
G1 X86.936 Y73.507 E36.89775
G1 X87.906 Y73.341 E36.94685
G1 X89.119 Y73.246 E37.00755
G1 X89.438 Y73.237 E37.02347
G1 X89.779 Y73.232 E37.04049
G1 X132.442 Y73.232 E39.16895
G1 X133.313 Y73.243 E39.21241
G1 X134.296 Y73.297 E39.26153
G1 X135.27 Y73.431 E39.31058
G1 X136.231 Y73.643 E39.35968
G1 X137.171 Y73.933 E39.40875
G1 X138.084 Y74.298 E39.45781
G1 X138.965 Y74.736 E39.50689
G1 X139.807 Y75.244 E39.55595
G1 X140.605 Y75.819 E39.60503
G1 X141.354 Y76.457 E39.65411
G1 X142.049 Y77.154 E39.70322
G1 X142.684 Y77.904 E39.75225
G1 X143.257 Y78.704 E39.80134
G1 X143.763 Y79.548 E39.85043
G1 X144.198 Y80.43 E39.8995
G1 X144.561 Y81.344 E39.94856
G1 X144.848 Y82.285 E39.99764
G1 X145.057 Y83.246 E40.04671
G1 X145.188 Y84.221 E40.09579
G1 X145.235 Y85.002 E40.13482
G1 X145.244 Y85.322 E40.1508
G1 X145.249 Y85.662 E40.16776
G1 X145.248 Y142.246 E42.99075
G1 X145.239 Y142.973 E43.02702
G1 X145.187 Y143.955 E43.07608
G1 X145.055 Y144.93 E43.12517
G1 X144.845 Y145.891 E43.17424
G1 X144.557 Y146.831 E43.22329
G1 X144.193 Y147.745 E43.27238
G1 X143.757 Y148.627 E43.32146
G1 X143.251 Y149.47 E43.37051
G1 X142.677 Y150.27 E43.41964
G1 X142.041 Y151.02 E43.4687
G1 X141.346 Y151.716 E43.51777
G1 X140.596 Y152.353 E43.56686
G1 X139.797 Y152.927 E43.61594
G1 X138.955 Y153.434 E43.66498
G1 X138.074 Y153.871 E43.71404
G1 X137.16 Y154.236 E43.76314
G1 X136.22 Y154.525 E43.81221
G1 X135.259 Y154.736 E43.86129
G1 X134.284 Y154.869 E43.91038
G1 X133.492 Y154.918 E43.94997
G1 X132.314 Y154.952 E44.00877
G1 X129.724 Y155.064 E44.13811
G1 X127.248 Y155.241 E44.26195
G1 X124.798 Y155.488 E44.3848
G1 X122.312 Y155.808 E44.50985
G1 X119.85 Y156.196 E44.6342
G1 X117.447 Y156.645 E44.75616
G1 X114.959 Y157.183 E44.88315
G1 X112.616 Y157.759 E45.00352
G1 X110.164 Y158.437 E45.13045
G1 X107.794 Y159.165 E45.25414
G1 X105.468 Y159.951 E45.37663
G1 X103.096 Y160.83 E45.50283
G1 X100.825 Y161.743 E45.62495
G1 X98.516 Y162.75 E45.75062
G1 X96.28 Y163.801 E45.87389
G1 X94.057 Y164.924 E45.99814
G1 X91.877 Y166.103 E46.12179
G1 X89.727 Y167.345 E46.24566
G1 X87.622 Y168.642 E46.36902
G1 X85.516 Y170.024 E46.49469
G1 X83.492 Y171.436 E46.61781
G1 X83.374 Y171.523 E46.62512
G1 X82.274 Y172.314 E46.69272
G1 X81.453 Y172.855 E46.74177
G1 X80.59 Y173.328 E46.79087
G1 X79.692 Y173.729 E46.83993
G1 X78.764 Y174.056 E46.88902
G1 X77.813 Y174.307 E46.93809
G1 X76.845 Y174.479 E46.98714
G1 X75.578 Y174.584 E47.05057
G1 X75.249 Y174.594 E47.06699
G1 X74.881 Y174.6 E47.08535
G1 X70.338 Y174.599 E47.31201
G1 X69.64 Y174.59 E47.34683
G1 X68.658 Y174.537 E47.3959
G1 X67.683 Y174.405 E47.44498
G1 X66.722 Y174.194 E47.49407
G1 X65.782 Y173.906 E47.54312
G1 X64.868 Y173.542 E47.5922
G1 X63.986 Y173.105 E47.64131
G1 X63.144 Y172.598 E47.69034
G1 X62.345 Y172.024 E47.73943
G1 X61.595 Y171.388 E47.78849
G1 X60.899 Y170.692 E47.83759
G1 X60.262 Y169.942 E47.88668
G1 X59.689 Y169.143 E47.93574
G1 X59.182 Y168.3 E47.98482
G1 X58.745 Y167.419 E48.03388
G1 X58.381 Y166.505 E48.08296
G1 X58.093 Y165.565 E48.13201
G1 X57.882 Y164.604 E48.1811
G1 X57.75 Y163.629 E48.23018
G1 X57.7 Y162.818 E48.27072
G1 X57.691 Y162.485 E48.28734
G1 X57.687 Y162.158 E48.30366
G1 X57.687 Y149.784 E48.921
G1 X57.65 Y147.187 E49.05058
G1 X57.546 Y144.73 E49.17327
G1 X57.368 Y142.221 E49.29875
G1 X57.124 Y139.756 E49.42233
G1 X56.808 Y137.292 E49.54627
G1 X56.423 Y134.838 E49.6702
G1 X55.969 Y132.398 E49.79402
G1 X55.449 Y129.983 E49.91727
G1 X54.851 Y127.54 E50.04275
G1 X54.198 Y125.167 E50.16554
G1 X53.468 Y122.782 E50.28997
G1 X52.67 Y120.416 E50.41455
G1 X51.808 Y118.078 E50.53887
G1 X50.891 Y115.796 E50.66156
G1 X49.889 Y113.493 E50.78686
G1 X48.833 Y111.242 E50.91091
G1 X47.845 Y109.27 E51.02095
G1 X47.435 Y108.474 E51.06562
