;FLAVOR:Marlin
;TIME:21627
;Filament used: 16.3609m
;Layer height: 0.16
;MINX:66.63
;MINY:36.892
;MINZ:0.2
;MAXX:158.651
;MAXY:158.491
;MAXZ:49.72
;Generated with Creality Slicer 4.8.2-205
M140 S70
M105
M190 S70
M104 S210
M105
M109 S210
M82 ;absolute extrusion mode

G28 ;Home

G92 E0 ;Reset Extruder
G1 Z2.0 F3000 ;Move Z Axis up
G1 X10.1 Y20 Z0.28 F5000.0 ;Move to start position
G1 X10.1 Y200.0 Z0.28 F1500.0 E15 ;Draw the first line
G1 X10.4 Y200.0 Z0.28 F5000.0 ;Move to side a little
G1 X10.4 Y20 Z0.28 F1500.0 E30 ;Draw the second line
G92 E0 ;Reset Extruder
G1 Z2.0 F3000 ;Move Z Axis up

G92 E0
G92 E0
G1 F1500 E-5
;LAYER_COUNT:307
;LAYER:0
M107
G0 F6000 X69.709 Y43.388 Z0.2
;TYPE:SKIRT
G1 F1500 E0
G1 F1200 X70.271 Y42.523 E0.05146
G1 X70.898 Y41.705 E0.10288
G1 X71.587 Y40.938 E0.15432
G1 X72.334 Y40.226 E0.20581
G1 X73.133 Y39.574 E0.25726
G1 X73.981 Y38.987 E0.30871
G1 X74.871 Y38.466 E0.36016
G1 X75.799 Y38.017 E0.41159
G1 X76.759 Y37.64 E0.46305
G1 X77.746 Y37.339 E0.51453
G1 X78.752 Y37.115 E0.56595
G1 X79.773 Y36.97 E0.6174
G1 X80.756 Y36.906 E0.66654
G1 X81.075 Y36.897 E0.68246
G1 X81.45 Y36.892 E0.70117
G1 X144.836 Y36.893 E3.86352
G1 X145.522 Y36.903 E3.89774
G1 X146.552 Y36.958 E3.9492
G1 X147.574 Y37.093 E4.00063
G1 X148.583 Y37.306 E4.05208
G1 X149.573 Y37.597 E4.10356
G1 X150.536 Y37.964 E4.15498
G1 X151.469 Y38.405 E4.20646
G1 X152.365 Y38.916 E4.25792
G1 X153.218 Y39.495 E4.30936
G1 X154.024 Y40.139 E4.36083
G1 X154.777 Y40.843 E4.41226
G1 X155.474 Y41.603 E4.46371
G1 X156.11 Y42.415 E4.51516
G1 X156.681 Y43.274 E4.56662
G1 X157.184 Y44.174 E4.61806
G1 X157.615 Y45.111 E4.66952
G1 X157.973 Y46.078 E4.72096
G1 X158.254 Y47.071 E4.77245
G1 X158.458 Y48.082 E4.8239
G1 X158.583 Y49.105 E4.87532
G1 X158.625 Y49.9 E4.91504
G1 X158.648 Y50.911 E4.96549
G1 X158.651 Y51.229 E4.98136
G1 X158.645 Y56.145 E5.22662
G1 X158.645 Y91.841 E7.0075
G1 X158.651 Y98.729 E7.35114
G1 X158.645 Y103.645 E7.5964
G1 X158.645 Y139.339 E9.37718
G1 X158.648 Y144.649 E9.6421
G1 X158.639 Y145.352 E9.67718
G1 X158.586 Y146.382 E9.72863
G1 X158.453 Y147.405 E9.7801
G1 X158.241 Y148.414 E9.83154
G1 X157.952 Y149.404 E9.88299
G1 X157.587 Y150.369 E9.93446
G1 X157.148 Y151.302 E9.9859
G1 X156.639 Y152.199 E10.03736
G1 X156.061 Y153.053 E10.08881
G1 X155.419 Y153.86 E10.14025
G1 X154.716 Y154.615 E10.19172
G1 X153.957 Y155.313 E10.24317
G1 X153.146 Y155.95 E10.29462
G1 X152.288 Y156.523 E10.34609
G1 X151.389 Y157.027 E10.39751
G1 X150.453 Y157.46 E10.44896
G1 X149.486 Y157.819 E10.50042
G1 X148.494 Y158.103 E10.5519
G1 X147.484 Y158.308 E10.60332
G1 X146.46 Y158.435 E10.6548
G1 X145.747 Y158.476 E10.69043
G1 X145.453 Y158.485 E10.7051
G1 X145.046 Y158.491 E10.72541
G1 X81.656 Y158.491 E13.88795
G1 X80.958 Y158.482 E13.92277
G1 X79.928 Y158.429 E13.97423
G1 X78.905 Y158.296 E14.0257
G1 X77.896 Y158.084 E14.07714
G1 X76.906 Y157.795 E14.12859
G1 X75.941 Y157.429 E14.18008
G1 X75.008 Y156.991 E14.2315
G1 X74.111 Y156.481 E14.28298
G1 X73.257 Y155.903 E14.33443
G1 X72.45 Y155.261 E14.38587
G1 X71.695 Y154.558 E14.43734
G1 X70.997 Y153.799 E14.48879
G1 X70.36 Y152.988 E14.54024
G1 X69.788 Y152.13 E14.59168
G1 X69.283 Y151.231 E14.64313
G1 X68.85 Y150.295 E14.69458
G1 X68.491 Y149.328 E14.74604
G1 X68.208 Y148.336 E14.7975
G1 X68.003 Y147.326 E14.84892
G1 X67.85 Y145.934 E14.91879
G1 X67.81 Y145.206 E14.95516
G1 X67.742 Y143.616 E15.03456
G1 X67.568 Y141.19 E15.1559
G1 X67.324 Y138.754 E15.27804
G1 X67.009 Y136.314 E15.40079
G1 X66.946 Y135.907 E15.42133
G1 X66.772 Y134.687 E15.48282
G1 X66.644 Y133.184 E15.55807
G1 X66.635 Y132.865 E15.57399
G1 X66.63 Y132.49 E15.5927
G1 X66.63 Y62.111 E19.10393
G1 X66.643 Y61.192 E19.14978
G1 X66.698 Y60.162 E19.20124
G1 X66.802 Y59.335 E19.24282
G1 X66.883 Y58.82 E19.26883
G1 X67.242 Y56.3 E19.39583
G1 X67.52 Y53.853 E19.51869
G1 X67.73 Y51.405 E19.64127
G1 X67.802 Y50.136 E19.70469
G1 X67.866 Y49.238 E19.7496
G1 X67.98 Y48.213 E19.80105
G1 X68.174 Y47.2 E19.85251
G1 X68.445 Y46.205 E19.90396
G1 X68.793 Y45.235 E19.95537
G1 X69.215 Y44.294 E20.00682
G1 X69.709 Y43.388 E20.05831
G0 F6000 X70.295 Y43.577
G1 F1200 X70.854 Y42.739 E20.10856
G1 X71.479 Y41.948 E20.15886
G1 X72.163 Y41.208 E20.20913
G1 X72.905 Y40.525 E20.25945
G1 X73.698 Y39.904 E20.3097
G1 X74.538 Y39.347 E20.35998
G1 X75.419 Y38.858 E20.41025
G1 X76.336 Y38.441 E20.46051
G1 X77.284 Y38.098 E20.51081
G1 X78.256 Y37.831 E20.56109
G1 X79.245 Y37.642 E20.61133
G1 X80.247 Y37.532 E20.66162
G1 X80.773 Y37.506 E20.68789
G1 X81.092 Y37.497 E20.70382
G1 X81.45 Y37.492 E20.72168
G1 X144.642 Y37.492 E23.87434
G1 X145.513 Y37.503 E23.9178
G1 X146.519 Y37.558 E23.96806
G1 X147.518 Y37.692 E24.01835
G1 X148.503 Y37.905 E24.06863
G1 X149.468 Y38.196 E24.11891
G1 X150.407 Y38.562 E24.16919
G1 X151.314 Y39.001 E24.21946
G1 X152.183 Y39.511 E24.26973
G1 X153.009 Y40.088 E24.32
G1 X153.787 Y40.729 E24.37029
G1 X154.512 Y41.43 E24.42061
G1 X155.178 Y42.186 E24.47087
G1 X155.783 Y42.992 E24.52115
G1 X156.322 Y43.843 E24.57141
G1 X156.791 Y44.735 E24.62168
G1 X157.189 Y45.661 E24.67197
G1 X157.511 Y46.616 E24.72225
G1 X157.757 Y47.593 E24.77251
G1 X157.925 Y48.587 E24.82281
G1 X158.025 Y49.913 E24.88915
G1 X158.048 Y50.924 E24.9396
G1 X158.051 Y51.229 E24.95482
G1 X158.045 Y56.145 E25.20008
G1 X158.045 Y91.841 E26.98096
G1 X158.051 Y98.729 E27.3246
G1 X158.045 Y103.645 E27.56987
G1 X158.045 Y139.339 E29.35065
G1 X158.048 Y144.642 E29.61521
G1 X158.039 Y145.345 E29.65029
G1 X157.986 Y146.351 E29.70055
G1 X157.854 Y147.35 E29.75082
G1 X157.642 Y148.335 E29.80109
G1 X157.354 Y149.301 E29.85138
G1 X156.989 Y150.24 E29.90164
G1 X156.551 Y151.148 E29.95194
G1 X156.043 Y152.018 E30.0022
G1 X155.467 Y152.845 E30.05248
G1 X154.828 Y153.624 E30.10275
G1 X154.129 Y154.35 E30.15303
G1 X153.374 Y155.018 E30.20332
G1 X152.569 Y155.624 E30.25359
G1 X151.718 Y156.164 E30.30387
G1 X150.827 Y156.635 E30.35415
G1 X149.902 Y157.034 E30.40441
G1 X148.948 Y157.359 E30.45469
G1 X147.971 Y157.607 E30.50498
G1 X146.977 Y157.776 E30.55528
G1 X145.729 Y157.876 E30.61775
G1 X145.435 Y157.885 E30.63242
G1 X145.046 Y157.891 E30.65183
G1 X81.663 Y157.891 E33.81402
G1 X80.965 Y157.882 E33.84885
G1 X79.959 Y157.829 E33.89911
G1 X78.96 Y157.696 E33.94939
G1 X77.975 Y157.485 E33.99964
G1 X77.009 Y157.196 E34.04995
G1 X76.069 Y156.832 E34.10024
G1 X75.162 Y156.394 E34.15049
G1 X74.292 Y155.885 E34.20078
G1 X73.465 Y155.31 E34.25103
G1 X72.686 Y154.67 E34.30133
G1 X71.96 Y153.971 E34.35161
G1 X71.292 Y153.216 E34.4019
G1 X70.686 Y152.411 E34.45217
G1 X70.146 Y151.56 E34.50245
G1 X69.675 Y150.669 E34.55273
G1 X69.276 Y149.744 E34.60299
G1 X68.952 Y148.789 E34.6533
G1 X68.704 Y147.813 E34.70354
G1 X68.535 Y146.819 E34.75385
G1 X68.449 Y145.9 E34.7999
G1 X68.41 Y145.18 E34.83587
G1 X68.343 Y143.618 E34.91387
G1 X68.164 Y141.122 E35.03872
G1 X67.917 Y138.653 E35.16251
G1 X67.606 Y136.241 E35.28384
G1 X67.54 Y135.822 E35.305
G1 X67.366 Y134.602 E35.36649
G1 X67.244 Y133.167 E35.43834
G1 X67.235 Y132.848 E35.45426
G1 X67.23 Y132.49 E35.47212
G1 X67.23 Y62.111 E38.98334
G1 X67.243 Y61.201 E39.02875
G1 X67.298 Y60.195 E39.07901
G1 X67.395 Y59.428 E39.11758
G1 X67.473 Y58.933 E39.14258
G1 X67.837 Y56.378 E39.27134
G1 X68.119 Y53.902 E39.39567
G1 X68.328 Y51.455 E39.51819
G1 X68.401 Y50.17 E39.5824
G1 X68.464 Y49.282 E39.62682
G1 X68.577 Y48.28 E39.67712
G1 X68.769 Y47.291 E39.72739
G1 X69.039 Y46.32 E39.77767
G1 X69.384 Y45.373 E39.82795
G1 X69.804 Y44.457 E39.87823
G1 X70.295 Y43.577 E39.9285
G0 F6000 X70.881 Y43.77
G1 F1200 X71.438 Y42.959 E39.97759
G1 X72.058 Y42.195 E40.02667
G1 X72.738 Y41.485 E40.07572
G1 X73.474 Y40.832 E40.12481
G1 X74.26 Y40.241 E40.17387
G1 X75.092 Y39.716 E40.22295
G1 X75.964 Y39.26 E40.27205
G1 X76.869 Y38.876 E40.32109
G1 X77.803 Y38.568 E40.37016
G1 X78.759 Y38.336 E40.41924
G1 X79.731 Y38.182 E40.46834
G1 X80.79 Y38.106 E40.52131
G1 X81.109 Y38.097 E40.53723
G1 X81.45 Y38.092 E40.55424
G1 X144.642 Y38.092 E43.7069
G1 X145.504 Y38.103 E43.74991
G1 X146.487 Y38.158 E43.79903
G1 X147.461 Y38.291 E43.84808
G1 X148.421 Y38.504 E43.89713
G1 X149.361 Y38.794 E43.94621
G1 X150.275 Y39.159 E43.99531
G1 X151.155 Y39.598 E44.04438
G1 X151.997 Y40.106 E44.09344
G1 X152.795 Y40.681 E44.14251
G1 X153.544 Y41.319 E44.1916
G1 X154.239 Y42.016 E44.2407
G1 X154.874 Y42.767 E44.28977
G1 X155.446 Y43.567 E44.33883
G1 X155.952 Y44.411 E44.38793
G1 X156.387 Y45.293 E44.43699
G1 X156.75 Y46.207 E44.48606
G1 X157.036 Y47.148 E44.53512
G1 X157.246 Y48.109 E44.5842
G1 X157.376 Y49.084 E44.63327
G1 X157.425 Y49.927 E44.6754
G1 X157.448 Y50.938 E44.72585
G1 X157.451 Y51.228 E44.74032
G1 X157.445 Y56.144 E44.98558
G1 X157.445 Y91.841 E46.76651
G1 X157.451 Y98.728 E47.11011
G1 X157.445 Y103.644 E47.35537
G1 X157.445 Y139.339 E49.1362
G1 X157.448 Y144.634 E49.40037
G1 X157.439 Y145.337 E49.43544
G1 X157.386 Y146.319 E49.48451
G1 X157.254 Y147.294 E49.53359
G1 X157.043 Y148.255 E49.58268
G1 X156.755 Y149.195 E49.63173
G1 X156.391 Y150.109 E49.68081
G1 X155.955 Y150.991 E49.7299
G1 X155.448 Y151.834 E49.77897
G1 X154.874 Y152.633 E49.82806
G1 X154.237 Y153.382 E49.87711
G1 X153.542 Y154.078 E49.92618
G1 X152.792 Y154.715 E49.97527
G1 X151.993 Y155.289 E50.02436
G1 X151.15 Y155.796 E50.07343
G1 X150.269 Y156.233 E50.1225
G1 X149.355 Y156.596 E50.17156
G1 X148.415 Y156.885 E50.22062
G1 X147.454 Y157.096 E50.26971
G1 X146.479 Y157.228 E50.3188
G1 X145.71 Y157.276 E50.35724
G1 X145.416 Y157.285 E50.37191
G1 X145.046 Y157.291 E50.39037
G1 X81.671 Y157.291 E53.55217
G1 X80.973 Y157.282 E53.58699
G1 X79.991 Y157.229 E53.63606
G1 X79.016 Y157.097 E53.68514
G1 X78.055 Y156.886 E53.73423
G1 X77.115 Y156.598 E53.78328
G1 X76.201 Y156.234 E53.83236
G1 X75.319 Y155.797 E53.88147
G1 X74.477 Y155.29 E53.9305
G1 X73.678 Y154.716 E53.97959
G1 X72.928 Y154.08 E54.02865
G1 X72.232 Y153.384 E54.07775
G1 X71.595 Y152.634 E54.12685
G1 X71.022 Y151.835 E54.1759
G1 X70.515 Y150.992 E54.22498
G1 X70.078 Y150.111 E54.27404
G1 X69.714 Y149.197 E54.32312
G1 X69.426 Y148.257 E54.37217
G1 X69.215 Y147.296 E54.42126
G1 X69.048 Y145.866 E54.49309
G1 X69.009 Y145.154 E54.52866
G1 X68.94 Y143.549 E54.60881
G1 X68.764 Y141.093 E54.73165
G1 X68.513 Y138.583 E54.8575
G1 X68.202 Y136.174 E54.97868
G1 X68.134 Y135.737 E55.00075
G1 X67.96 Y134.517 E55.06223
G1 X67.844 Y133.15 E55.13068
G1 X67.835 Y132.831 E55.1466
G1 X67.83 Y132.49 E55.16361
G1 X67.831 Y61.925 E58.68411
G1 X67.842 Y61.211 E58.71974
G1 X67.898 Y60.228 E58.76886
G1 X67.987 Y59.521 E58.80441
G1 X68.074 Y58.966 E58.83244
G1 X68.436 Y56.43 E58.96024
G1 X68.715 Y53.979 E59.08331
G1 X68.926 Y51.508 E59.20704
G1 X69 Y50.204 E59.2722
G1 X69.063 Y49.325 E59.31617
G1 X69.174 Y48.348 E59.36522
G1 X69.364 Y47.383 E59.41429
G1 X69.632 Y46.436 E59.46339
G1 X69.975 Y45.515 E59.51243
G1 X70.393 Y44.624 E59.56153
G1 X70.881 Y43.77 E59.6106
G0 F6000 X71.467 Y43.967
G1 F1200 X72.02 Y43.184 E59.65842
G1 X72.637 Y42.449 E59.7063
G1 X73.312 Y41.768 E59.75414
G1 X74.042 Y41.146 E59.80198
G1 X74.821 Y40.587 E59.84982
G1 X75.644 Y40.095 E59.89766
G1 X76.505 Y39.673 E59.94549
G1 X77.398 Y39.324 E59.99333
G1 X78.317 Y39.051 E60.04116
G1 X79.256 Y38.855 E60.08901
G1 X80.208 Y38.738 E60.13687
G1 X80.807 Y38.706 E60.16679
G1 X81.126 Y38.697 E60.18272
G1 X81.45 Y38.692 E60.19888
G1 X144.642 Y38.692 E63.35154
G1 X145.496 Y38.703 E63.39415
G1 X146.453 Y38.757 E63.44197
G1 X147.403 Y38.891 E63.48984
G1 X148.338 Y39.103 E63.53767
G1 X149.252 Y39.392 E63.58549
G1 X150.139 Y39.757 E63.63335
G1 X150.993 Y40.194 E63.68121
G1 X151.807 Y40.701 E63.72905
G1 X152.576 Y41.273 E63.77687
G1 X153.295 Y41.908 E63.82472
G1 X153.958 Y42.601 E63.87257
G1 X154.561 Y43.346 E63.92039
G1 X155.1 Y44.139 E63.96823
G1 X155.571 Y44.975 E64.0161
G1 X155.971 Y45.846 E64.06392
G1 X156.297 Y46.748 E64.11177
G1 X156.547 Y47.674 E64.15962
G1 X156.718 Y48.618 E64.20748
G1 X156.825 Y49.94 E64.27365
G1 X156.848 Y50.951 E64.3241
G1 X156.851 Y51.227 E64.33788
G1 X156.845 Y56.143 E64.58314
G1 X156.845 Y91.841 E66.36412
G1 X156.851 Y98.727 E66.70766
G1 X156.845 Y103.643 E66.95292
G1 X156.845 Y139.339 E68.7338
G1 X156.848 Y144.626 E68.99757
G1 X156.839 Y145.329 E69.03265
G1 X156.787 Y146.287 E69.08051
G1 X156.655 Y147.237 E69.12836
G1 X156.444 Y148.172 E69.17618
G1 X156.157 Y149.087 E69.22403
G1 X155.794 Y149.975 E69.27189
G1 X155.358 Y150.829 E69.31972
G1 X154.853 Y151.644 E69.36756
G1 X154.281 Y152.414 E69.41541
G1 X153.648 Y153.134 E69.46324
G1 X152.956 Y153.798 E69.51109
G1 X152.212 Y154.403 E69.55893
G1 X151.42 Y154.943 E69.60675
G1 X150.585 Y155.416 E69.65463
G1 X149.715 Y155.817 E69.70243
G1 X148.813 Y156.145 E69.75031
G1 X147.888 Y156.396 E69.79813
G1 X146.945 Y156.569 E69.84596
G1 X145.692 Y156.677 E69.9087
G1 X145.398 Y156.686 E69.92338
G1 X145.046 Y156.691 E69.94094
G1 X81.679 Y156.691 E73.10233
G1 X80.981 Y156.682 E73.13716
G1 X80.023 Y156.63 E73.18502
G1 X79.073 Y156.498 E73.23287
G1 X78.138 Y156.287 E73.28069
G1 X77.223 Y155.999 E73.32855
G1 X76.335 Y155.636 E73.37641
G1 X75.481 Y155.201 E73.42423
G1 X74.666 Y154.695 E73.47209
G1 X73.896 Y154.124 E73.51991
G1 X73.176 Y153.49 E73.56778
G1 X72.512 Y152.799 E73.61559
G1 X71.907 Y152.054 E73.66347
G1 X71.367 Y151.262 E73.71129
G1 X70.895 Y150.428 E73.7591
G1 X70.493 Y149.557 E73.80696
G1 X70.166 Y148.655 E73.85483
G1 X69.915 Y147.73 E73.90264
G1 X69.741 Y146.787 E73.95048
G1 X69.647 Y145.833 E73.99831
G1 X69.616 Y145.285 E74.02569
G1 X69.541 Y143.549 E74.11238
G1 X69.36 Y141.025 E74.23863
G1 X69.109 Y138.516 E74.36443
G1 X68.794 Y136.074 E74.48727
G1 X68.728 Y135.653 E74.50853
G1 X68.554 Y134.433 E74.57001
G1 X68.444 Y133.133 E74.6351
G1 X68.435 Y132.814 E74.65102
G1 X68.43 Y132.49 E74.66719
G1 X68.431 Y61.934 E78.18724
G1 X68.442 Y61.22 E78.22287
G1 X68.497 Y60.262 E78.27074
G1 X68.58 Y59.614 E78.30334
G1 X68.666 Y59.069 E78.33086
G1 X69.03 Y56.513 E78.45967
G1 X69.313 Y54.027 E78.5845
G1 X69.527 Y51.523 E78.70988
G1 X69.611 Y50.058 E78.78309
G1 X69.661 Y49.369 E78.81755
G1 X69.77 Y48.416 E78.86541
G1 X69.959 Y47.476 E78.91324
G1 X70.225 Y46.554 E78.96112
G1 X70.566 Y45.658 E79.00895
G1 X70.981 Y44.794 E79.05677
G1 X71.467 Y43.967 E79.10462
G0 F6000 X71.57 Y44.967
G1 F1200 X72.053 Y44.168 E79.1512
G1 X72.602 Y43.414 E79.19773
G1 X73.214 Y42.709 E79.24431
G1 X73.884 Y42.059 E79.29088
G1 X74.608 Y41.468 E79.33751
G1 X75.379 Y40.942 E79.38407
G1 X76.192 Y40.484 E79.43063
G1 X77.042 Y40.097 E79.47722
G1 X77.922 Y39.784 E79.52382
G1 X78.825 Y39.548 E79.57038
G1 X79.745 Y39.39 E79.61695
G1 X80.824 Y39.305 E79.67095
G1 X81.143 Y39.296 E79.68687
G1 X81.45 Y39.292 E79.70219
G1 X144.642 Y39.292 E82.85485
G1 X145.487 Y39.303 E82.89701
G1 X146.419 Y39.357 E82.94359
G1 X147.343 Y39.49 E82.99016
G1 X148.252 Y39.702 E83.03673
G1 X149.14 Y39.99 E83.08331
G1 X150 Y40.354 E83.1299
G1 X150.826 Y40.79 E83.17649
G1 X151.611 Y41.295 E83.22306
G1 X152.35 Y41.865 E83.26962
G1 X153.038 Y42.497 E83.31623
G1 X153.669 Y43.185 E83.36281
G1 X154.239 Y43.924 E83.40937
G1 X154.743 Y44.71 E83.45595
G1 X155.179 Y45.535 E83.5025
G1 X155.542 Y46.395 E83.54908
G1 X155.83 Y47.283 E83.59565
G1 X156.041 Y48.193 E83.64225
G1 X156.174 Y49.117 E83.68883
G1 X156.225 Y49.954 E83.73066
G1 X156.248 Y50.965 E83.78112
G1 X156.251 Y51.226 E83.79414
G1 X156.245 Y56.142 E84.0394
G1 X156.245 Y91.841 E85.82043
G1 X156.251 Y98.726 E86.16392
G1 X156.245 Y103.642 E86.40918
G1 X156.245 Y139.339 E88.19011
G1 X156.248 Y144.619 E88.45353
G1 X156.239 Y145.322 E88.48861
G1 X156.187 Y146.254 E88.53518
G1 X156.056 Y147.178 E88.58174
G1 X155.846 Y148.088 E88.62833
G1 X155.558 Y148.976 E88.67491
G1 X155.196 Y149.836 E88.72146
G1 X154.762 Y150.663 E88.76805
G1 X154.258 Y151.449 E88.81464
G1 X153.689 Y152.189 E88.86121
G1 X153.059 Y152.878 E88.90779
G1 X152.372 Y153.51 E88.95436
G1 X151.634 Y154.081 E89.00091
G1 X150.849 Y154.587 E89.04751
G1 X150.024 Y155.024 E89.09408
G1 X149.165 Y155.389 E89.14065
G1 X148.277 Y155.679 E89.18725
G1 X147.368 Y155.892 E89.23383
G1 X146.444 Y156.026 E89.28041
G1 X145.674 Y156.077 E89.31891
G1 X145.38 Y156.086 E89.33359
G1 X145.046 Y156.091 E89.35025
G1 X81.686 Y156.091 E92.51129
