;FLAVOR:Marlin
;TIME:14856
;Filament used: 15.2814m
;Layer height: 0.16
;MINX:2.822
;MINY:5.916
;MINZ:0.2
;MAXX:218.447
;MAXY:216.224
;MAXZ:7.44
;Generated with Cura_SteamEngine 5.2.1
M140 S70
M105
M190 S70
M104 S215
M105
M109 S215
M82 ;absolute extrusion mode
M201 X500.00 Y500.00 Z100.00 E5000.00 ;Setup machine max acceleration
M203 X500.00 Y500.00 Z10.00 E50.00 ;Setup machine max feedrate
M204 P500.00 R1000.00 T500.00 ;Setup Print/Retract/Travel acceleration
M205 X8.00 Y8.00 Z0.40 E5.00 ;Setup Jerk
M220 S100 ;Reset Feedrate
M221 S100 ;Reset Flowrate

G28 ;Home

G92 E0 ;Reset Extruder
G1 Z2.0 F3000 ;Move Z Axis up
G1 X10.1 Y20 Z0.28 F5000.0 ;Move to start position
G1 X10.1 Y200.0 Z0.28 F1500.0 E15 ;Draw the first line
G1 X10.4 Y200.0 Z0.28 F5000.0 ;Move to side a little
G1 X10.4 Y20 Z0.28 F1500.0 E30 ;Draw the second line
G92 E0 ;Reset Extruder
G1 Z2.0 F3000 ;Move Z Axis up

G92 E0
G92 E0
G1 F1500 E-6
;LAYER_COUNT:40
;LAYER:0
M107
G0 F6000 X141.824 Y11.37 Z0.2
;TYPE:SKIRT
G1 F1500 E0
G1 F1200 X142.359 Y10.85 E0.03722
G1 X143.145 Y10.144 E0.08993
G1 X143.471 Y9.874 E0.11105
G1 X144.182 Y9.314 E0.1562
G1 X145.021 Y8.713 E0.20769
G1 X145.903 Y8.179 E0.25913
G1 X146.381 Y7.928 E0.28607
G1 X147.163 Y7.543 E0.32955
G1 X147.571 Y7.354 E0.35199
G1 X148.523 Y6.957 E0.40345
G1 X149.974 Y6.509 E0.47921
G1 X150.367 Y6.412 E0.4994
G1 X151.257 Y6.216 E0.54487
G1 X152.273 Y6.039 E0.59632
G1 X153.3 Y5.942 E0.64779
G1 X153.816 Y5.924 E0.67355
G1 X154.652 Y5.916 E0.71526
G1 X155.134 Y5.923 E0.73931
G1 X156.164 Y5.978 E0.79077
G1 X157.644 Y6.2 E0.86543
G1 X158.594 Y6.407 E0.91394
G1 X159.041 Y6.518 E0.93692
G1 X160.032 Y6.805 E0.98839
G1 X161.456 Y7.372 E1.06486
G1 X162.198 Y7.723 E1.10581
G1 X162.598 Y7.923 E1.12812
G1 X163.502 Y8.42 E1.17959
G1 X164.722 Y9.248 E1.25315
G1 X165.381 Y9.761 E1.29481
G1 X165.77 Y10.079 E1.31988
G1 X166.612 Y10.83 E1.37617
G1 X167.291 Y11.49 E1.42341
G1 X176.92 Y21.121 E2.10286
G1 X178.803 Y22.952 E2.23389
G1 X180.575 Y24.58 E2.35394
G1 X182.435 Y26.194 E2.47681
G1 X184.343 Y27.757 E2.59986
G1 X186.279 Y29.254 E2.72195
G1 X188.241 Y30.684 E2.84308
G1 X190.264 Y32.074 E2.96553
G1 X192.328 Y33.406 E3.08809
G1 X195.162 Y35.108 E3.25302
G1 X195.759 Y35.451 E3.28737
G1 X196.632 Y36 E3.33882
G1 X197.138 Y36.363 E3.36989
G1 X197.813 Y36.885 E3.41246
G1 X198.244 Y37.237 E3.44022
G1 X199.088 Y37.989 E3.49662
G1 X199.826 Y38.706 E3.54795
G1 X212.873 Y51.756 E4.46859
G1 X213.495 Y52.393 E4.51301
G1 X214.184 Y53.156 E4.5643
G1 X214.436 Y53.458 E4.58392
G1 X215.021 Y54.197 E4.63095
G1 X215.624 Y55.033 E4.68237
G1 X216.16 Y55.915 E4.73386
G1 X216.443 Y56.452 E4.76415
G1 X216.681 Y56.93 E4.79079
G1 X217.013 Y57.635 E4.82966
G1 X217.409 Y58.588 E4.88115
G1 X217.849 Y60.018 E4.95579
G1 X218.034 Y60.79 E4.9954
G1 X218.145 Y61.306 E5.02173
G1 X218.322 Y62.322 E5.07318
G1 X218.421 Y63.348 E5.12461
G1 X218.441 Y63.91 E5.15267
G1 X218.447 Y64.708 E5.19248
G1 X218.44 Y65.192 E5.21663
G1 X218.385 Y66.222 E5.26809
G1 X218.173 Y67.658 E5.34051
G1 X217.975 Y68.576 E5.38736
G1 X217.857 Y69.057 E5.41207
G1 X217.573 Y70.048 E5.4635
G1 X217.017 Y71.46 E5.53921
G1 X216.663 Y72.214 E5.58077
G1 X216.46 Y72.622 E5.6035
G1 X215.965 Y73.526 E5.65492
G1 X215.401 Y74.39 E5.7064
G1 X215.043 Y74.872 E5.73635
G1 X214.506 Y75.553 E5.77962
G1 X214.24 Y75.875 E5.80046
G1 X213.569 Y76.627 E5.85074
G1 X212.955 Y77.261 E5.89477
G1 X79.433 Y210.78 E15.31536
G1 X78.902 Y211.296 E15.3523
G1 X78.073 Y212.037 E15.40778
G1 X77.732 Y212.317 E15.42979
G1 X77.047 Y212.853 E15.47318
G1 X76.207 Y213.451 E15.52462
G1 X74.88 Y214.215 E15.60102
G1 X74.118 Y214.589 E15.64337
G1 X73.667 Y214.797 E15.66814
G1 X72.715 Y215.193 E15.71958
G1 X71.734 Y215.513 E15.77106
G1 X70.8 Y215.75 E15.81914
G1 X70.007 Y215.924 E15.85964
G1 X68.991 Y216.1 E15.91109
G1 X67.964 Y216.198 E15.96256
G1 X67.439 Y216.216 E15.98876
G1 X66.589 Y216.224 E16.03117
G1 X66.121 Y216.217 E16.05452
G1 X65.091 Y216.161 E16.10599
G1 X63.635 Y215.944 E16.17943
G1 X62.701 Y215.741 E16.22711
G1 X62.248 Y215.629 E16.2504
G1 X61.257 Y215.343 E16.30185
G1 X59.898 Y214.809 E16.3747
G1 X59.514 Y214.633 E16.39578
G1 X58.708 Y214.239 E16.44053
G1 X57.803 Y213.745 E16.49197
G1 X56.939 Y213.182 E16.54342
G1 X56.48 Y212.843 E16.57189
G1 X55.791 Y212.301 E16.61563
G1 X55.39 Y211.969 E16.6416
G1 X54.575 Y211.235 E16.69632
G1 X54.022 Y210.694 E16.73491
G1 X44.301 Y200.973 E17.42078
G1 X42.457 Y199.181 E17.54907
G1 X40.667 Y197.536 E17.67035
G1 X38.821 Y195.936 E17.79223
G1 X36.938 Y194.392 E17.91372
G1 X34.982 Y192.88 E18.03706
G1 X33.012 Y191.445 E18.15865
G1 X30.958 Y190.035 E18.28295
G1 X28.968 Y188.75 E18.40113
G1 X25.906 Y186.915 E18.57922
G1 X25.517 Y186.692 E18.60159
G1 X24.643 Y186.144 E18.65306
G1 X24.083 Y185.741 E18.68748
G1 X23.39 Y185.203 E18.73125
G1 X22.995 Y184.879 E18.75674
G1 X22.168 Y184.141 E18.81204
G1 X21.484 Y183.475 E18.85967
G1 X8.409 Y170.399 E19.78221
G1 X7.758 Y169.732 E19.82871
G1 X7.025 Y168.915 E19.88348
G1 X6.537 Y168.315 E19.92206
G1 X6.225 Y167.914 E19.94741
G1 X5.624 Y167.076 E19.99886
G1 X5.089 Y166.194 E20.05032
G1 X4.832 Y165.706 E20.07784
G1 X4.42 Y164.868 E20.12443
G1 X4.243 Y164.483 E20.14557
G1 X3.849 Y163.53 E20.19702
G1 X3.402 Y162.061 E20.27362
G1 X3.222 Y161.297 E20.31278
G1 X3.12 Y160.818 E20.33721
G1 X2.944 Y159.802 E20.38866
G1 X2.83 Y158.285 E20.46455
G1 X2.822 Y157.369 E20.51026
G1 X2.83 Y156.908 E20.53326
G1 X2.888 Y155.879 E20.58468
G1 X3.105 Y154.44 E20.65728
G1 X3.197 Y153.996 E20.6799
G1 X3.418 Y153.063 E20.72774
G1 X3.704 Y152.072 E20.7792
G1 X4.257 Y150.672 E20.8543
G1 X4.573 Y150 E20.89134
G1 X4.81 Y149.522 E20.91796
G1 X5.304 Y148.616 E20.96944
G1 X5.866 Y147.752 E21.02087
G1 X6.216 Y147.28 E21.05018
G1 X6.737 Y146.616 E21.09229
G1 X7.017 Y146.275 E21.1143
G1 X7.772 Y145.431 E21.1708
G1 X8.275 Y144.915 E21.20675
G1 X141.824 Y11.37 E30.62921
G0 F6000 X142.242 Y11.8
G1 F1200 X142.777 Y11.28 E30.66643
G1 X143.528 Y10.606 E30.71678
G1 X143.854 Y10.336 E30.7379
G1 X144.55 Y9.788 E30.78209
G1 X145.37 Y9.202 E30.83237
G1 X146.649 Y8.464 E30.90604
G1 X147.062 Y8.257 E30.92909
G1 X147.823 Y7.898 E30.97107
G1 X148.753 Y7.511 E31.02132
G1 X150.118 Y7.092 E31.09256
G1 X150.9 Y6.905 E31.13268
G1 X151.382 Y6.802 E31.15727
G1 X152.375 Y6.631 E31.20754
G1 X153.826 Y6.524 E31.28012
G1 X154.643 Y6.516 E31.32088
G1 X155.125 Y6.523 E31.34493
G1 X156.132 Y6.578 E31.39525
G1 X157.522 Y6.787 E31.46538
G1 X158.45 Y6.989 E31.51276
G1 X158.897 Y7.1 E31.53574
G1 X159.864 Y7.382 E31.58599
G1 X161.202 Y7.915 E31.65784
G1 X161.616 Y8.108 E31.68063
G1 X162.33 Y8.46 E31.72035
G1 X163.212 Y8.946 E31.77059
G1 X164.357 Y9.725 E31.83968
G1 X165.001 Y10.225 E31.88036
G1 X165.39 Y10.543 E31.90542
G1 X166.195 Y11.26 E31.95921
G1 X166.729 Y11.778 E31.99632
G1 X176.537 Y21.587 E32.68836
G1 X178.347 Y23.346 E32.81428
G1 X180.183 Y25.034 E32.93871
G1 X182.07 Y26.671 E33.06334
G1 X183.94 Y28.203 E33.18395
G1 X185.907 Y29.725 E33.30803
G1 X187.913 Y31.187 E33.43187
G1 X189.947 Y32.584 E33.55498
G1 X191.997 Y33.907 E33.6767
G1 X194.903 Y35.652 E33.84581
G1 X195.46 Y35.972 E33.87786
G1 X196.313 Y36.508 E33.92812
G1 X196.777 Y36.842 E33.95664
G1 X197.433 Y37.35 E33.99804
G1 X197.864 Y37.702 E34.0258
G1 X198.671 Y38.419 E34.07966
G1 X199.26 Y38.99 E34.12058
G1 X212.561 Y52.294 E35.05915
G1 X213.066 Y52.812 E35.09524
G1 X213.723 Y53.54 E35.14416
G1 X213.975 Y53.842 E35.16378
G1 X214.548 Y54.566 E35.20985
G1 X215.136 Y55.384 E35.26011
G1 X215.658 Y56.247 E35.31043
G1 X215.906 Y56.719 E35.33703
G1 X216.144 Y57.197 E35.36367
G1 X216.468 Y57.887 E35.4017
G1 X216.854 Y58.818 E35.45198
G1 X217.266 Y60.162 E35.52211
G1 X217.447 Y60.916 E35.5608
G1 X217.558 Y61.432 E35.58713
G1 X217.731 Y62.425 E35.63742
G1 X217.841 Y63.919 E35.71216
G1 X217.847 Y64.7 E35.75112
G1 X217.84 Y65.184 E35.77527
G1 X217.785 Y66.19 E35.82554
G1 X217.585 Y67.538 E35.89352
G1 X217.392 Y68.433 E35.9392
G1 X217.274 Y68.914 E35.96391
G1 X216.996 Y69.882 E36.01416
G1 X216.472 Y71.208 E36.08529
G1 X216.287 Y71.609 E36.10732
G1 X215.922 Y72.354 E36.14871
G1 X215.438 Y73.238 E36.19899
G1 X214.885 Y74.081 E36.24929
G1 X214.57 Y74.503 E36.27556
G1 X214.27 Y74.888 E36.29991
G1 X213.777 Y75.492 E36.33881
G1 X213.137 Y76.211 E36.38683
G1 X212.702 Y76.663 E36.41813
G1 X79.015 Y210.35 E45.85047
G1 X78.484 Y210.866 E45.88741
G1 X77.692 Y211.573 E45.94038
G1 X77.054 Y212.09 E45.98134
G1 X76.681 Y212.378 E46.00486
G1 X75.859 Y212.962 E46.05516
G1 X74.611 Y213.679 E46.12697
G1 X73.867 Y214.045 E46.16834
G1 X73.416 Y214.253 E46.19311
G1 X72.485 Y214.638 E46.24338
G1 X71.081 Y215.065 E46.31659
G1 X70.659 Y215.167 E46.33825
G1 X69.881 Y215.337 E46.37798
G1 X68.888 Y215.509 E46.42826
G1 X67.429 Y215.616 E46.50124
G1 X66.598 Y215.624 E46.5427
G1 X66.13 Y215.617 E46.56606
G1 X65.124 Y215.562 E46.61632
G1 X63.757 Y215.357 E46.68528
G1 X62.845 Y215.159 E46.73184
G1 X62.392 Y215.047 E46.75512
G1 X61.424 Y214.766 E46.80541
G1 X60.148 Y214.263 E46.87384
G1 X59.408 Y213.917 E46.91459
G1 X58.975 Y213.702 E46.93871
G1 X58.091 Y213.218 E46.98899
G1 X56.848 Y212.369 E47.06409
G1 X56.498 Y212.098 E47.08618
G1 X55.773 Y211.506 E47.13287
G1 X54.994 Y210.806 E47.18512
G1 X54.549 Y210.371 E47.21617
G1 X44.72 Y200.542 E47.90966
G1 X42.913 Y198.785 E48.0354
G1 X41.059 Y197.082 E48.161
G1 X39.207 Y195.476 E48.28329
G1 X37.298 Y193.911 E48.40645
G1 X35.354 Y192.408 E48.52904
G1 X33.34 Y190.941 E48.65335
G1 X31.315 Y189.551 E48.77589
G1 X29.263 Y188.226 E48.89775
G1 X26.227 Y186.407 E49.07432
G1 X25.815 Y186.171 E49.09801
G1 X24.962 Y185.636 E49.14825
G1 X24.446 Y185.264 E49.17998
G1 X23.771 Y184.739 E49.22264
G1 X23.376 Y184.415 E49.24813
G1 X22.586 Y183.71 E49.30096
G1 X21.908 Y183.051 E49.34813
G1 X8.833 Y169.975 E50.27068
G1 X8.187 Y169.313 E50.31682
G1 X7.488 Y168.534 E50.36904
G1 X7.238 Y168.231 E50.38864
G1 X6.699 Y167.546 E50.43212
G1 X6.112 Y166.726 E50.48243
G1 X5.368 Y165.437 E50.55669
G1 X5.15 Y165.002 E50.58096
G1 X4.788 Y164.232 E50.62341
G1 X4.404 Y163.3 E50.6737
G1 X3.985 Y161.92 E50.74565
G1 X3.809 Y161.172 E50.78399
G1 X3.707 Y160.693 E50.80842
G1 X3.536 Y159.7 E50.85869
G1 X3.43 Y158.275 E50.92998
G1 X3.422 Y157.38 E50.97464
G1 X3.43 Y156.919 E50.99764
G1 X3.487 Y155.913 E51.04791
G1 X3.692 Y154.562 E51.11608
G1 X3.784 Y154.118 E51.1387
G1 X4 Y153.207 E51.18541
G1 X4.28 Y152.239 E51.23569
G1 X4.802 Y150.924 E51.30627
G1 X5.111 Y150.267 E51.3425
G1 X5.348 Y149.789 E51.36911
G1 X5.831 Y148.904 E51.41941
G1 X6.383 Y148.061 E51.46969
G1 X6.69 Y147.648 E51.49536
G1 X7.201 Y146.997 E51.53665
G1 X7.481 Y146.656 E51.55866
G1 X8.202 Y145.85 E51.61261
G1 X8.705 Y145.334 E51.64856
G1 X142.242 Y11.8 E61.07022
G0 F6000 X142.661 Y12.23
G1 F1200 X143.196 Y11.71 E61.10744
G1 X143.911 Y11.068 E61.15538
G1 X144.533 Y10.56 E61.19544
G1 X144.918 Y10.261 E61.21976
G1 X145.719 Y9.69 E61.26884
G1 X146.918 Y9.001 E61.33783
G1 X147.331 Y8.794 E61.36088
G1 X148.075 Y8.443 E61.40192
G1 X148.984 Y8.066 E61.45102
G1 X150.261 Y7.675 E61.51765
G1 X151.025 Y7.492 E61.55684
G1 X151.507 Y7.389 E61.58143
G1 X152.477 Y7.223 E61.63053
G1 X153.836 Y7.124 E61.69851
G1 X154.635 Y7.116 E61.73837
G1 X155.117 Y7.123 E61.76242
G1 X156.099 Y7.178 E61.81149
G1 X157.4 Y7.375 E61.87714
G1 X158.305 Y7.572 E61.92335
G1 X158.752 Y7.683 E61.94632
G1 X159.696 Y7.958 E61.99538
G1 X160.949 Y8.459 E62.0627
G1 X161.363 Y8.652 E62.08549
G1 X162.061 Y8.996 E62.12431
G1 X162.922 Y9.472 E62.1734
G1 X163.993 Y10.202 E62.23806
G1 X164.621 Y10.69 E62.27774
G1 X165.01 Y11.008 E62.30281
G1 X165.777 Y11.691 E62.35404
G1 X166.443 Y12.339 E62.4004
G1 X176.119 Y22.017 E63.08317
G1 X177.948 Y23.794 E63.21039
G1 X179.789 Y25.487 E63.33517
G1 X181.666 Y27.116 E63.45917
G1 X183.581 Y28.684 E63.58265
G1 X185.536 Y30.196 E63.70595
G1 X187.586 Y31.691 E63.83253
G1 X189.615 Y33.084 E63.95532
G1 X191.659 Y34.404 E64.07671
G1 X194.604 Y36.172 E64.24808
G1 X195.161 Y36.492 E64.28013
G1 X195.993 Y37.016 E64.32918
G1 X196.415 Y37.321 E64.35516
G1 X197.054 Y37.814 E64.39543
G1 X197.485 Y38.166 E64.42319
G1 X198.253 Y38.85 E64.4745
G1 X198.977 Y39.554 E64.52488
G1 X212.131 Y52.712 E65.45311
G1 X212.636 Y53.23 E65.4892
G1 X213.262 Y53.925 E65.53586
G1 X213.762 Y54.534 E65.57518
G1 X214.075 Y54.935 E65.60055
G1 X214.649 Y55.734 E65.64964
G1 X215.369 Y56.987 E65.72173
G1 X215.607 Y57.465 E65.74837
G1 X215.923 Y58.138 E65.78547
G1 X216.299 Y59.048 E65.83459
G1 X216.684 Y60.306 E65.90023
G1 X216.86 Y61.042 E65.93798
G1 X216.971 Y61.558 E65.96431
G1 X217.139 Y62.528 E66.01343
G1 X217.241 Y63.927 E66.08341
G1 X217.247 Y64.691 E66.12153
G1 X217.24 Y65.175 E66.14568
G1 X217.186 Y66.157 E66.19474
G1 X216.997 Y67.418 E66.25836
G1 X216.81 Y68.29 E66.30285
G1 X216.692 Y68.771 E66.32756
G1 X216.419 Y69.716 E66.37663
G1 X215.927 Y70.957 E66.44323
G1 X215.588 Y71.679 E66.48303
G1 X215.385 Y72.087 E66.50576
G1 X214.912 Y72.949 E66.55482
G1 X214.096 Y74.134 E66.6266
G1 X213.581 Y74.788 E66.66813
G1 X213.315 Y75.11 E66.68897
G1 X212.704 Y75.794 E66.73472
G1 X212.107 Y76.412 E66.77759
G1 X78.597 Y209.92 E76.19737
G1 X78.066 Y210.436 E76.23431
G1 X77.312 Y211.109 E76.28473
G1 X76.687 Y211.615 E76.32485
G1 X76.314 Y211.903 E76.34836
G1 X75.511 Y212.472 E76.39746
G1 X74.342 Y213.143 E76.46471
G1 X73.616 Y213.5 E76.50507
G1 X73.165 Y213.708 E76.52985
G1 X72.255 Y214.083 E76.57896
G1 X70.94 Y214.481 E76.6475
G1 X70.205 Y214.655 E76.68518
G1 X69.756 Y214.751 E76.70809
G1 X68.786 Y214.917 E76.75719
G1 X67.419 Y215.016 E76.82557
G1 X66.607 Y215.024 E76.86608
G1 X66.139 Y215.017 E76.88943
G1 X65.157 Y214.962 E76.9385
G1 X63.878 Y214.769 E77.00303
G1 X63.451 Y214.681 E77.02478
G1 X62.536 Y214.464 E77.0717
G1 X61.591 Y214.19 E77.12078
G1 X60.398 Y213.718 E77.18479
G1 X59.675 Y213.38 E77.22461
G1 X59.242 Y213.165 E77.24873
G1 X58.379 Y212.692 E77.29783
G1 X57.215 Y211.894 E77.36824
G1 X56.557 Y211.376 E77.41002
G1 X56.156 Y211.044 E77.43599
G1 X55.414 Y210.377 E77.48577
G1 X54.871 Y209.845 E77.52369
G1 X45.138 Y200.112 E78.21041
G1 X43.312 Y198.338 E78.33742
G1 X41.471 Y196.645 E78.4622
G1 X39.575 Y195.002 E78.58737
G1 X37.675 Y193.444 E78.70995
G1 X35.725 Y191.937 E78.8329
G1 X33.667 Y190.438 E78.95993
G1 X31.656 Y189.057 E79.08164
G1 X29.585 Y187.719 E79.20465
G1 X26.541 Y185.896 E79.38166
G1 X26.114 Y185.651 E79.40622
G1 X25.281 Y185.127 E79.45532
G1 X24.809 Y184.786 E79.48437
G1 X24.151 Y184.275 E79.52594
G1 X23.756 Y183.951 E79.55142
G1 X23.003 Y183.279 E79.60178
G1 X22.333 Y182.627 E79.64842
G1 X9.147 Y169.439 E80.57883
G1 X8.617 Y168.895 E80.61672
G1 X7.951 Y168.152 E80.6665
G1 X7.484 Y167.578 E80.70342
G1 X7.172 Y167.177 E80.72877
G1 X6.6 Y166.377 E80.77783
G1 X5.904 Y165.168 E80.84743
G1 X5.686 Y164.733 E80.87171
G1 X5.333 Y163.981 E80.91315
G1 X4.959 Y163.072 E80.96219
G1 X4.568 Y161.779 E81.02958
G1 X4.395 Y161.047 E81.06711
G1 X4.293 Y160.568 E81.09154
G1 X4.128 Y159.598 E81.14063
G1 X4.03 Y158.264 E81.20736
G1 X4.022 Y157.816 E81.22972
G1 X4.03 Y156.929 E81.27397
G1 X4.087 Y155.947 E81.32305
G1 X4.28 Y154.684 E81.38679
G1 X4.473 Y153.792 E81.43232
G1 X4.582 Y153.351 E81.45499
G1 X4.857 Y152.406 E81.50409
G1 X5.346 Y151.175 E81.57017
G1 X5.648 Y150.533 E81.60557
G1 X5.885 Y150.055 E81.63219
G1 X6.358 Y149.192 E81.68128
G1 X7.164 Y148.015 E81.75245
G1 X7.454 Y147.641 E81.77606
G1 X7.945 Y147.036 E81.81494
G1 X8.632 Y146.269 E81.86631
G1 X9.243 Y145.643 E81.90995
G1 X142.661 Y12.23 E91.32313
G0 F6000 X143.079 Y12.66
G1 F1200 X143.614 Y12.14 E91.36036
G1 X144.294 Y11.53 E91.40593
G1 X144.901 Y11.034 E91.44504
G1 X145.286 Y10.735 E91.46936
G1 X146.067 Y10.179 E91.51719
G1 X147.187 Y9.537 E91.58159
G1 X147.919 Y9.176 E91.62231
G1 X148.327 Y8.987 E91.64475
G1 X149.213 Y8.621 E91.69257
G1 X150.405 Y8.257 E91.75475
G1 X151.151 Y8.079 E91.79302
G1 X151.633 Y7.976 E91.81761
G1 X152.578 Y7.815 E91.86543
G1 X153.846 Y7.724 E91.92885
G1 X154.626 Y7.716 E91.96777
G1 X155.108 Y7.723 E91.99182
G1 X156.065 Y7.777 E92.03964
G1 X157.278 Y7.962 E92.10086
G1 X158.161 Y8.154 E92.14594
G1 X158.608 Y8.265 E92.16892
G1 X159.528 Y8.535 E92.21675
G1 X160.695 Y9.003 E92.27948
G1 X161.393 Y9.333 E92.318
G1 X161.793 Y9.533 E92.34031
G1 X162.632 Y9.997 E92.38815
