;FLAVOR:Marlin
;TIME:14699
;Filament used: 15.832m
;Layer height: 0.16
;MINX:20.259
;MINY:16.284
;MINZ:0.2
;MAXX:199.741
;MAXY:203.717
;MAXZ:25
;Generated with Cura_SteamEngine 5.2.1
M140 S70
M105
M190 S70
M104 S215
M105
M109 S215
M82 ;absolute extrusion mode
M201 X500.00 Y500.00 Z100.00 E5000.00 ;Setup machine max acceleration
M203 X500.00 Y500.00 Z10.00 E50.00 ;Setup machine max feedrate
M204 P500.00 R1000.00 T500.00 ;Setup Print/Retract/Travel acceleration
M205 X8.00 Y8.00 Z0.40 E5.00 ;Setup Jerk
M220 S100 ;Reset Feedrate
M221 S100 ;Reset Flowrate

G28 ;Home

G92 E0 ;Reset Extruder
G1 Z2.0 F3000 ;Move Z Axis up
G1 X10.1 Y20 Z0.28 F5000.0 ;Move to start position
G1 X10.1 Y200.0 Z0.28 F1500.0 E15 ;Draw the first line
G1 X10.4 Y200.0 Z0.28 F5000.0 ;Move to side a little
G1 X10.4 Y20 Z0.28 F1500.0 E30 ;Draw the second line
G92 E0 ;Reset Extruder
G1 Z2.0 F3000 ;Move Z Axis up

G92 E0
G92 E0
G1 F1500 E-6
;LAYER_COUNT:129
;LAYER:0
M107
G0 F6000 X30.286 Y30.455 Z0.2
;TYPE:SKIRT
G1 F1500 E0
G1 F1200 X31.413 Y29.43 E0.076
G1 X32.698 Y28.296 E0.16151
G1 X34.477 Y26.632 E0.28303
G1 X36.454 Y24.688 E0.42136
G1 X39.88 Y21.476 E0.65566
G1 X40.548 Y20.867 E0.70076
G1 X41.396 Y20.158 E0.7559
G1 X42.053 Y19.66 E0.79703
G1 X42.445 Y19.376 E0.82118
G1 X43.303 Y18.803 E0.87266
G1 X44.203 Y18.299 E0.92412
G1 X44.678 Y18.068 E0.95047
G1 X45.09 Y17.878 E0.9731
G1 X45.899 Y17.528 E1.01708
G1 X46.862 Y17.16 E1.06851
G1 X47.851 Y16.869 E1.11995
G1 X48.401 Y16.742 E1.14811
G1 X48.852 Y16.648 E1.17109
G1 X49.706 Y16.49 E1.21442
G1 X50.728 Y16.348 E1.2659
G1 X51.757 Y16.285 E1.31733
G1 X52.286 Y16.284 E1.34372
G1 X53.141 Y16.306 E1.3864
G1 X53.653 Y16.331 E1.41197
G1 X54.68 Y16.421 E1.4634
G1 X56.156 Y16.694 E1.53829
G1 X57.007 Y16.909 E1.58208
G1 X57.506 Y17.049 E1.60794
G1 X58.487 Y17.366 E1.65937
G1 X59.861 Y17.959 E1.73403
G1 X60.694 Y18.385 E1.78071
G1 X61.127 Y18.621 E1.80531
G1 X62.013 Y19.149 E1.85677
G1 X63.25 Y20.059 E1.93338
G1 X63.589 Y20.34 E1.95535
G1 X64.276 Y20.937 E2.00076
G1 X65.104 Y21.73 E2.05796
G1 X65.649 Y22.3 E2.0973
G1 X110.411 Y70.127 E5.36542
G1 X110.893 Y70.657 E5.40116
G1 X112.7 Y72.589 E5.53314
G1 X113.277 Y73.188 E5.57463
G1 X194.694 Y160.178 E11.51889
G1 X195.155 Y160.686 E11.55312
G1 X195.796 Y161.448 E11.6028
G1 X196.339 Y162.158 E11.64739
G1 X196.642 Y162.576 E11.67315
G1 X197.215 Y163.434 E11.72462
G1 X197.719 Y164.334 E11.77608
G1 X197.959 Y164.829 E11.80353
G1 X198.354 Y165.703 E11.85138
G1 X198.514 Y166.082 E11.8719
G1 X198.878 Y167.047 E11.92336
G1 X199.26 Y168.441 E11.99547
G1 X199.439 Y169.314 E12.03993
G1 X199.537 Y169.865 E12.06785
G1 X199.679 Y170.887 E12.11933
G1 X199.741 Y172.423 E12.19602
G1 X199.721 Y173.233 E12.23645
G1 X199.695 Y173.779 E12.26372
G1 X199.606 Y174.806 E12.31515
G1 X199.333 Y176.29 E12.39043
G1 X199.115 Y177.151 E12.43474
G1 X198.973 Y177.657 E12.46096
G1 X198.656 Y178.638 E12.51239
G1 X198.264 Y179.592 E12.56385
G1 X198.034 Y180.071 E12.59036
G1 X197.833 Y180.468 E12.61256
G1 X197.433 Y181.218 E12.65496
G1 X196.909 Y182.106 E12.7064
G1 X196.317 Y182.95 E12.75784
G1 X195.975 Y183.381 E12.78529
G1 X195.476 Y183.976 E12.82403
G1 X195.12 Y184.383 E12.85101
G1 X194.334 Y185.208 E12.90785
G1 X193.739 Y185.779 E12.949
G1 X190.129 Y189.156 E13.19562
G1 X189.365 Y189.852 E13.24718
G1 X187.786 Y191.249 E13.35236
G1 X185.974 Y192.944 E13.47615
G1 X184.907 Y194.003 E13.55115
G1 X183.489 Y195.372 E13.64949
G1 X179.977 Y198.656 E13.88937
G1 X179.452 Y199.133 E13.92476
G1 X178.669 Y199.791 E13.97578
G1 X177.964 Y200.328 E14.02
G1 X177.539 Y200.635 E14.04615
G1 X176.68 Y201.206 E14.09761
G1 X175.332 Y201.926 E14.17386
G1 X174.556 Y202.278 E14.21637
G1 X174.101 Y202.472 E14.24105
G1 X173.138 Y202.84 E14.29248
G1 X172.149 Y203.131 E14.34391
G1 X171.599 Y203.258 E14.37207
G1 X171.148 Y203.352 E14.39506
G1 X170.247 Y203.517 E14.44076
G1 X169.225 Y203.657 E14.49222
G1 X168.195 Y203.717 E14.54369
G1 X167.663 Y203.716 E14.57024
G1 X166.863 Y203.694 E14.61016
G1 X166.348 Y203.669 E14.63589
G1 X165.321 Y203.579 E14.68732
G1 X164.303 Y203.41 E14.7388
G1 X163.782 Y203.292 E14.76545
G1 X163.042 Y203.103 E14.80356
G1 X162.543 Y202.965 E14.82939
G1 X161.56 Y202.652 E14.88086
G1 X160.605 Y202.263 E14.9323
G1 X160.129 Y202.036 E14.95861
G1 X159.355 Y201.642 E15.00194
G1 X158.938 Y201.417 E15.02558
G1 X158.05 Y200.892 E15.07705
G1 X156.805 Y199.984 E15.15393
G1 X156.45 Y199.692 E15.17686
G1 X155.71 Y199.05 E15.22573
G1 X154.906 Y198.28 E15.28127
G1 X154.469 Y197.825 E15.31275
G1 X93.546 Y132.731 E19.76077
G1 X92.492 Y131.572 E19.83893
G1 X91.657 Y130.627 E19.90184
G1 X89.999 Y128.853 E20.02299
G1 X88.849 Y127.69 E20.10459
G1 X88.033 Y126.841 E20.16333
G1 X25.321 Y59.837 E24.74192
G1 X24.864 Y59.336 E24.77575
G1 X24.159 Y58.497 E24.83043
G1 X23.889 Y58.147 E24.85248
G1 X23.363 Y57.431 E24.8968
G1 X22.79 Y56.574 E24.94824
G1 X22.285 Y55.674 E24.99972
G1 X22.041 Y55.171 E25.02761
G1 X21.635 Y54.271 E25.07687
G1 X21.473 Y53.885 E25.09776
G1 X21.111 Y52.919 E25.14923
G1 X20.722 Y51.478 E25.22369
G1 X20.638 Y51.079 E25.24403
G1 X20.468 Y50.164 E25.29046
G1 X20.324 Y49.142 E25.34196
G1 X20.261 Y48.113 E25.39339
G1 X20.259 Y47.564 E25.42078
G1 X20.267 Y47.125 E25.44268
G1 X20.306 Y46.207 E25.48852
G1 X20.396 Y45.179 E25.54001
G1 X20.669 Y43.7 E25.61504
G1 X20.887 Y42.84 E25.6593
G1 X21.024 Y42.351 E25.68464
G1 X21.341 Y41.369 E25.73612
G1 X21.732 Y40.415 E25.78756
G1 X21.965 Y39.932 E25.81431
G1 X22.344 Y39.195 E25.85566
G1 X22.585 Y38.751 E25.88086
G1 X23.112 Y37.865 E25.93229
G1 X24.024 Y36.621 E26.00925
G1 X24.545 Y35.999 E26.04973
G1 X24.883 Y35.613 E26.07533
G1 X25.679 Y34.78 E26.13281
G1 X26.325 Y34.161 E26.17744
G1 X30.286 Y30.455 E26.44807
G0 F6000 X30.696 Y30.893
G1 F1200 X31.81 Y29.879 E26.52322
G1 X33.117 Y28.726 E26.61018
G1 X34.904 Y27.055 E26.73223
G1 X36.865 Y25.126 E26.86947
G1 X40.43 Y21.785 E27.11323
G1 X40.951 Y21.311 E27.14837
G1 X41.761 Y20.633 E27.20106
G1 X42.119 Y20.358 E27.22359
G1 X42.797 Y19.861 E27.26553
G1 X43.636 Y19.303 E27.3158
G1 X44.93 Y18.613 E27.38896
G1 X45.342 Y18.423 E27.41159
G1 X46.134 Y18.08 E27.45465
G1 X47.076 Y17.721 E27.50495
G1 X48.524 Y17.329 E27.57979
G1 X49.331 Y17.166 E27.62086
G1 X49.812 Y17.08 E27.64524
G1 X50.81 Y16.942 E27.69551
G1 X52.275 Y16.884 E27.76865
G1 X53.111 Y16.905 E27.81037
G1 X53.623 Y16.93 E27.83595
G1 X54.627 Y17.019 E27.88623
G1 X56.013 Y17.277 E27.95657
G1 X56.845 Y17.487 E27.99938
G1 X57.344 Y17.627 E28.02524
G1 X58.302 Y17.938 E28.07549
G1 X59.593 Y18.496 E28.14565
G1 X60.407 Y18.912 E28.19126
G1 X60.84 Y19.148 E28.21586
G1 X61.705 Y19.665 E28.26614
G1 X62.867 Y20.521 E28.33814
G1 X63.206 Y20.802 E28.36011
G1 X63.88 Y21.388 E28.40467
G1 X64.671 Y22.145 E28.45929
G1 X65.211 Y22.71 E28.49828
G1 X109.967 Y70.531 E31.76598
G1 X110.471 Y71.085 E31.80334
G1 X112.253 Y72.991 E31.93352
G1 X112.968 Y73.735 E31.985
G1 X194.25 Y160.581 E37.91942
G1 X194.711 Y161.089 E37.95364
G1 X195.323 Y161.817 E38.00109
G1 X195.854 Y162.51 E38.04465
G1 X196.157 Y162.928 E38.0704
G1 X196.715 Y163.767 E38.12067
G1 X197.414 Y165.079 E38.19484
G1 X197.641 Y165.573 E38.22196
G1 X197.961 Y166.316 E38.26232
G1 X198.316 Y167.259 E38.31259
G1 X198.673 Y168.568 E38.38028
G1 X198.849 Y169.419 E38.42364
G1 X198.947 Y169.97 E38.45156
G1 X199.084 Y170.969 E38.50187
G1 X199.141 Y172.413 E38.57396
G1 X199.122 Y173.204 E38.61344
G1 X199.096 Y173.75 E38.64071
G1 X199.008 Y174.754 E38.69099
G1 X198.75 Y176.148 E38.76172
G1 X198.538 Y176.988 E38.80494
G1 X198.396 Y177.494 E38.83116
G1 X198.085 Y178.453 E38.88146
G1 X197.499 Y179.8 E38.95474
G1 X197.298 Y180.197 E38.97695
G1 X196.905 Y180.933 E39.01857
G1 X196.392 Y181.8 E39.06883
G1 X195.513 Y182.998 E39.14296
G1 X195.024 Y183.581 E39.18092
G1 X194.668 Y183.988 E39.2079
G1 X193.918 Y184.775 E39.26214
G1 X193.329 Y185.341 E39.30289
G1 X189.85 Y188.597 E39.54062
G1 X188.961 Y189.408 E39.60065
G1 X187.386 Y190.802 E39.70559
G1 X185.582 Y192.489 E39.82881
G1 X184.615 Y193.45 E39.89683
G1 X183.079 Y194.934 E40.00338
G1 X179.71 Y198.086 E40.23355
G1 X179.048 Y198.689 E40.27823
G1 X178.301 Y199.317 E40.32692
G1 X177.613 Y199.842 E40.37009
G1 X177.188 Y200.149 E40.39625
G1 X176.348 Y200.706 E40.44653
G1 X175.08 Y201.382 E40.51822
G1 X174.669 Y201.572 E40.54081
G1 X173.866 Y201.92 E40.58448
G1 X172.924 Y202.279 E40.63477
G1 X171.476 Y202.671 E40.70961
G1 X170.637 Y202.84 E40.75231
G1 X170.143 Y202.927 E40.77733
G1 X169.144 Y203.062 E40.82763
G1 X167.675 Y203.116 E40.90097
G1 X166.892 Y203.095 E40.94004
G1 X166.377 Y203.07 E40.96577
G1 X165.373 Y202.981 E41.01605
G1 X163.927 Y202.709 E41.08946
G1 X163.202 Y202.525 E41.12678
G1 X162.703 Y202.387 E41.15261
G1 X161.743 Y202.08 E41.20289
G1 X160.397 Y201.5 E41.27601
G1 X159.98 Y201.291 E41.29928
G1 X159.223 Y200.889 E41.34205
G1 X158.356 Y200.375 E41.39233
G1 X157.186 Y199.52 E41.46463
G1 X156.507 Y198.953 E41.50876
G1 X156.106 Y198.6 E41.53541
G1 X155.338 Y197.864 E41.58848
G1 X154.901 Y197.409 E41.61996
G1 X93.989 Y132.327 E46.06717
G1 X92.942 Y131.175 E46.14483
G1 X92.105 Y130.227 E46.20793
G1 X90.422 Y128.427 E46.33087
G1 X89.276 Y127.268 E46.41218
G1 X88.362 Y126.315 E46.47806
G1 X25.764 Y59.433 E51.04832
G1 X25.307 Y58.932 E51.08215
G1 X24.634 Y58.13 E51.13438
G1 X24.142 Y57.484 E51.17489
G1 X23.848 Y57.079 E51.19986
G1 X23.289 Y56.24 E51.25016
G1 X22.586 Y54.921 E51.32473
G1 X22.359 Y54.427 E51.35185
G1 X22.027 Y53.653 E51.39387
G1 X21.674 Y52.709 E51.44415
G1 X21.309 Y51.354 E51.51416
G1 X21.154 Y50.59 E51.55305
G1 X21.058 Y50.057 E51.58007
G1 X20.919 Y49.059 E51.63034
G1 X20.859 Y47.575 E51.70444
G1 X20.88 Y46.749 E51.74567
G1 X20.905 Y46.236 E51.77129
G1 X20.994 Y45.232 E51.82158
G1 X21.252 Y43.842 E51.89211
G1 X21.356 Y43.416 E51.91398
G1 X21.602 Y42.513 E51.96068
G1 X21.912 Y41.554 E52.01096
G1 X22.5 Y40.203 E52.08447
G1 X22.871 Y39.481 E52.12497
G1 X23.112 Y39.037 E52.15017
G1 X23.628 Y38.172 E52.20042
G1 X24.487 Y37.003 E52.27279
G1 X24.996 Y36.394 E52.31239
G1 X25.334 Y36.008 E52.33799
G1 X26.095 Y35.213 E52.39289
G1 X26.735 Y34.599 E52.43714
G1 X30.696 Y30.893 E52.70777
G0 F6000 X31.106 Y31.331
G1 F1200 X32.207 Y30.329 E52.78204
G1 X33.499 Y29.189 E52.868
G1 X35.348 Y27.459 E52.99433
G1 X37.275 Y25.564 E53.12917
G1 X40.834 Y22.229 E53.3725
G1 X41.355 Y21.755 E53.40764
G1 X42.127 Y21.109 E53.45786
G1 X42.757 Y20.631 E53.49731
G1 X43.149 Y20.347 E53.52146
G1 X43.968 Y19.803 E53.57052
G1 X45.181 Y19.158 E53.63906
G1 X45.593 Y18.968 E53.66169
G1 X46.369 Y18.632 E53.70388
G1 X47.289 Y18.283 E53.75297
G1 X48.646 Y17.917 E53.82309
G1 X49.436 Y17.757 E53.8633
G1 X49.917 Y17.671 E53.88768
G1 X50.892 Y17.537 E53.93678
G1 X52.264 Y17.484 E54.00528
G1 X53.082 Y17.504 E54.0461
G1 X53.594 Y17.529 E54.07168
G1 X54.574 Y17.617 E54.12077
G1 X55.871 Y17.86 E54.1866
G1 X56.683 Y18.065 E54.22838
G1 X57.182 Y18.205 E54.25424
G1 X58.117 Y18.509 E54.30329
G1 X59.324 Y19.032 E54.36892
G1 X59.74 Y19.24 E54.39212
G1 X60.553 Y19.675 E54.43812
G1 X61.397 Y20.18 E54.48719
G1 X62.484 Y20.983 E54.55462
G1 X63.083 Y21.486 E54.59364
G1 X63.484 Y21.838 E54.62026
G1 X64.238 Y22.56 E54.67234
G1 X64.773 Y23.12 E54.71098
G1 X109.523 Y70.934 E57.97821
G1 X110.047 Y71.51 E58.01706
G1 X111.808 Y73.393 E58.14569
G1 X112.412 Y74.02 E58.18912
G1 X193.805 Y160.985 E64.13166
G1 X194.266 Y161.493 E64.16588
G1 X194.85 Y162.186 E64.21109
G1 X195.368 Y162.862 E64.25358
G1 X195.671 Y163.28 E64.27934
G1 X196.215 Y164.1 E64.32843
G1 X196.869 Y165.33 E64.39793
G1 X197.096 Y165.824 E64.42506
G1 X197.408 Y166.549 E64.46444
G1 X197.754 Y167.47 E64.51352
G1 X198.087 Y168.695 E64.57685
G1 X198.258 Y169.524 E64.61908
G1 X198.356 Y170.075 E64.647
G1 X198.489 Y171.05 E64.6961
G1 X198.541 Y172.403 E64.76365
G1 X198.522 Y173.176 E64.80222
G1 X198.496 Y173.722 E64.8295
G1 X198.41 Y174.701 E64.87853
G1 X198.167 Y176.007 E64.9448
G1 X197.96 Y176.826 E64.98695
G1 X197.818 Y177.332 E65.01317
G1 X197.514 Y178.268 E65.06226
G1 X196.963 Y179.529 E65.13092
G1 X196.615 Y180.207 E65.16894
G1 X196.377 Y180.648 E65.19394
G1 X195.875 Y181.494 E65.24302
G1 X195.051 Y182.616 E65.31247
G1 X194.787 Y182.935 E65.33313
G1 X194.217 Y183.593 E65.37656
G1 X193.502 Y184.343 E65.42826
G1 X193.044 Y184.784 E65.45998
G1 X189.321 Y188.269 E65.7144
G1 X188.42 Y189.088 E65.77514
G1 X186.966 Y190.372 E65.87192
G1 X185.156 Y192.066 E65.9956
G1 X184.073 Y193.141 E66.07173
G1 X182.669 Y194.496 E66.16908
G1 X179.17 Y197.768 E66.40808
G1 X178.645 Y198.245 E66.44347
G1 X177.933 Y198.843 E66.48986
G1 X177.261 Y199.356 E66.53203
G1 X176.836 Y199.663 E66.55819
G1 X176.016 Y200.206 E66.60726
G1 X174.828 Y200.837 E66.67437
G1 X174.086 Y201.174 E66.71503
G1 X173.631 Y201.368 E66.7397
G1 X172.711 Y201.717 E66.78879
G1 X171.354 Y202.083 E66.85891
G1 X170.533 Y202.249 E66.9007
G1 X170.039 Y202.336 E66.92573
G1 X169.064 Y202.467 E66.97481
G1 X167.688 Y202.516 E67.0435
G1 X166.921 Y202.496 E67.08178
G1 X166.406 Y202.471 E67.1075
G1 X165.427 Y202.383 E67.15654
G1 X164.072 Y202.127 E67.22534
G1 X163.362 Y201.946 E67.26189
G1 X162.863 Y201.808 E67.28772
G1 X161.926 Y201.508 E67.33681
G1 X160.666 Y200.963 E67.4053
G1 X159.925 Y200.586 E67.44678
G1 X159.508 Y200.361 E67.47042
G1 X158.662 Y199.859 E67.51949
G1 X157.567 Y199.057 E67.58721
G1 X157.212 Y198.765 E67.61014
G1 X156.503 Y198.149 E67.657
G1 X155.771 Y197.449 E67.70753
G1 X155.334 Y196.994 E67.739
G1 X94.433 Y131.923 E72.18544
G1 X93.391 Y130.778 E72.26268
G1 X92.534 Y129.807 E72.32729
G1 X90.863 Y128.019 E72.44939
G1 X89.702 Y126.846 E72.53173
G1 X88.899 Y126.01 E72.58956
G1 X26.207 Y59.028 E77.16666
G1 X25.75 Y58.527 E77.20049
G1 X25.109 Y57.764 E77.25021
G1 X24.839 Y57.414 E77.27226
G1 X24.334 Y56.726 E77.31484
G1 X23.789 Y55.907 E77.36392
G1 X23.131 Y54.67 E77.43382
G1 X22.904 Y54.176 E77.46095
G1 X22.58 Y53.421 E77.50194
G1 X22.236 Y52.499 E77.55103
G1 X21.897 Y51.231 E77.61652
G1 X21.745 Y50.484 E77.65455
G1 X21.649 Y49.951 E77.68157
G1 X21.514 Y48.976 E77.73067
G1 X21.459 Y47.586 E77.80008
G1 X21.479 Y46.778 E77.8404
G1 X21.504 Y46.265 E77.86602
G1 X21.592 Y45.285 E77.91511
G1 X21.835 Y43.984 E77.98114
G1 X21.939 Y43.558 E78.00302
G1 X22.18 Y42.675 E78.04868
G1 X22.483 Y41.739 E78.09777
G1 X23.036 Y40.474 E78.16664
G1 X23.399 Y39.768 E78.20625
G1 X23.64 Y39.324 E78.23145
G1 X24.144 Y38.479 E78.28054
G1 X24.949 Y37.385 E78.3483
G1 X25.226 Y37.05 E78.36999
G1 X25.786 Y36.404 E78.41264
G1 X26.51 Y35.646 E78.46494
G1 X27.145 Y35.037 E78.50883
G1 X31.106 Y31.331 E78.77946
G0 F6000 X31.516 Y31.769
G1 F1200 X32.604 Y30.779 E78.85285
G1 X33.899 Y29.636 E78.93902
G1 X35.755 Y27.9 E79.06581
G1 X37.686 Y26.001 E79.20093
G1 X41.112 Y22.789 E79.43522
G1 X41.759 Y22.199 E79.47891
G1 X42.492 Y21.585 E79.52661
G1 X42.85 Y21.31 E79.54913
G1 X43.501 Y20.833 E79.5894
G1 X44.3 Y20.303 E79.63723
G1 X45.432 Y19.703 E79.70115
G1 X46.15 Y19.377 E79.74049
G1 X46.605 Y19.183 E79.76517
G1 X47.502 Y18.844 E79.81301
G1 X48.769 Y18.504 E79.87846
G1 X49.22 Y18.41 E79.90144
G1 X50.023 Y18.262 E79.94218
G1 X50.973 Y18.132 E79.99001
G1 X52.254 Y18.084 E80.05397
G1 X53.053 Y18.104 E80.09384
G1 X53.565 Y18.129 E80.11942
G1 X54.52 Y18.215 E80.16726
G1 X55.729 Y18.443 E80.22864
G1 X56.521 Y18.643 E80.26939
G1 X57.02 Y18.783 E80.29525
G1 X57.931 Y19.08 E80.34305
G1 X59.056 Y19.569 E80.40425
G1 X59.833 Y19.965 E80.44776
G1 X60.266 Y20.201 E80.47236
G1 X61.088 Y20.695 E80.52021
G1 X62.101 Y21.445 E80.58309
G1 X62.688 Y21.937 E80.6213
G1 X63.089 Y22.289 E80.64792
G1 X63.805 Y22.975 E80.69739
G1 X64.242 Y23.431 E80.7289
G1 X109.08 Y71.338 E84.00252
G1 X109.626 Y71.938 E84.043
G1 X111.362 Y73.794 E84.16978
G1 X111.98 Y74.436 E84.21424
G1 X193.361 Y161.388 E90.15589
G1 X193.822 Y161.896 E90.19012
G1 X194.376 Y162.554 E90.23303
G1 X194.882 Y163.215 E90.27456
G1 X195.185 Y163.633 E90.30032
G1 X195.715 Y164.432 E90.34816
G1 X196.324 Y165.58 E90.41299
G1 X196.551 Y166.074 E90.44011
G1 X196.856 Y166.782 E90.47857
G1 X197.191 Y167.681 E90.52644
G1 X197.501 Y168.822 E90.58543
G1 X197.667 Y169.629 E90.62653
G1 X197.765 Y170.18 E90.65445
G1 X197.894 Y171.131 E90.70233
G1 X197.941 Y172.392 E90.76529
G1 X197.923 Y173.147 E90.80296
G1 X197.897 Y173.693 E90.83023
