;FLAVOR:Marlin
;TIME:14326
;Filament used: 15.1926m
;Layer height: 0.16
;MINX:5.901
;MINY:6.198
;MINZ:0.2
;MAXX:213.091
;MAXY:213.163
;MAXZ:7.44
;Generated with Cura_SteamEngine 5.2.1
M140 S70
M105
M190 S70
M104 S215
M105
M109 S215
M82 ;absolute extrusion mode
M201 X500.00 Y500.00 Z100.00 E5000.00 ;Setup machine max acceleration
M203 X500.00 Y500.00 Z10.00 E50.00 ;Setup machine max feedrate
M204 P500.00 R1000.00 T500.00 ;Setup Print/Retract/Travel acceleration
M205 X8.00 Y8.00 Z0.40 E5.00 ;Setup Jerk
M220 S100 ;Reset Feedrate
M221 S100 ;Reset Flowrate

G28 ;Home

G92 E0 ;Reset Extruder
G1 Z2.0 F3000 ;Move Z Axis up
G1 X10.1 Y20 Z0.28 F5000.0 ;Move to start position
G1 X10.1 Y200.0 Z0.28 F1500.0 E15 ;Draw the first line
G1 X10.4 Y200.0 Z0.28 F5000.0 ;Move to side a little
G1 X10.4 Y20 Z0.28 F1500.0 E30 ;Draw the second line
G92 E0 ;Reset Extruder
G1 Z2.0 F3000 ;Move Z Axis up

G92 E0
G92 E0
G1 F1500 E-6
;LAYER_COUNT:40
;LAYER:0
M107
G0 F6000 X30.119 Y30.502 Z0.2
;TYPE:SKIRT
G1 F1500 E0
G1 F1200 X31.899 Y28.722 E0.12559
G1 X33.601 Y26.921 E0.24922
G1 X34.859 Y25.551 E0.34201
G1 X35.522 Y24.87 E0.38943
G1 X48.737 Y11.658 E1.32171
G1 X49.28 Y11.129 E1.35953
G1 X50.11 Y10.386 E1.41511
G1 X50.664 Y9.936 E1.45072
G1 X51.079 Y9.612 E1.47698
G1 X51.916 Y9.009 E1.52845
G1 X52.797 Y8.473 E1.5799
G1 X53.328 Y8.193 E1.60985
G1 X53.727 Y7.994 E1.63209
G1 X54.518 Y7.623 E1.67568
G1 X55.47 Y7.228 E1.7271
G1 X56.9 Y6.79 E1.80172
G1 X57.725 Y6.594 E1.84402
G1 X58.197 Y6.494 E1.86809
G1 X59.214 Y6.319 E1.91958
G1 X60.708 Y6.207 E1.99432
G1 X61.58 Y6.198 E2.03783
G1 X62.061 Y6.205 E2.06183
G1 X63.09 Y6.26 E2.11324
G1 X64.552 Y6.478 E2.18698
G1 X65.493 Y6.682 E2.23502
G1 X65.945 Y6.794 E2.25825
G1 X66.936 Y7.081 E2.30973
G1 X68.236 Y7.59 E2.37938
G1 X68.996 Y7.943 E2.42119
G1 X69.478 Y8.182 E2.44803
G1 X70.384 Y8.676 E2.49951
G1 X71.248 Y9.238 E2.55093
G1 X71.678 Y9.555 E2.57758
G1 X72.363 Y10.09 E2.62095
G1 X72.72 Y10.383 E2.64399
G1 X73.548 Y11.123 E2.69939
G1 X74.208 Y11.765 E2.74533
G1 X207.53 Y145.087 E12.15191
G1 X208.138 Y145.711 E12.19538
G1 X208.905 Y146.569 E12.2528
G1 X209.206 Y146.937 E12.27651
G1 X209.696 Y147.562 E12.31614
G1 X210.297 Y148.4 E12.36758
G1 X210.831 Y149.282 E12.41902
G1 X211.107 Y149.809 E12.4487
G1 X211.302 Y150.202 E12.47059
G1 X211.646 Y150.934 E12.51094
G1 X212.044 Y151.885 E12.56238
G1 X212.367 Y152.864 E12.61381
G1 X212.503 Y153.374 E12.64014
G1 X212.679 Y154.115 E12.67814
G1 X212.786 Y154.611 E12.70345
G1 X212.964 Y155.627 E12.75491
G1 X213.063 Y156.654 E12.80639
G1 X213.083 Y157.194 E12.83335
G1 X213.091 Y158.025 E12.87481
G1 X213.084 Y158.516 E12.89931
G1 X213.029 Y159.545 E12.95072
G1 X212.809 Y161.024 E13.02532
G1 X212.722 Y161.444 E13.04672
G1 X212.497 Y162.394 E13.09542
G1 X212.211 Y163.385 E13.14688
G1 X211.674 Y164.752 E13.22015
G1 X211.319 Y165.508 E13.26182
G1 X211.089 Y165.969 E13.28753
G1 X210.593 Y166.873 E13.33897
G1 X210.029 Y167.736 E13.3904
G1 X209.459 Y168.491 E13.4376
G1 X208.85 Y169.238 E13.48568
G1 X208.139 Y170.032 E13.53886
G1 X207.563 Y170.623 E13.58003
G1 X194.268 Y183.916 E14.51799
G1 X193.788 Y184.384 E14.55144
G1 X193.21 Y184.915 E14.5906
G1 X192.502 Y185.528 E14.63732
G1 X190.625 Y187.204 E14.76286
G1 X188.821 Y188.908 E14.88667
G1 X187.087 Y190.643 E15.00904
G1 X185.419 Y192.408 E15.1302
G1 X184.334 Y193.597 E15.21051
G1 X183.615 Y194.344 E15.26223
G1 X170.381 Y207.577 E16.19593
G1 X169.714 Y208.228 E16.24243
G1 X168.846 Y209.003 E16.30048
G1 X168.246 Y209.487 E16.33894
G1 X167.858 Y209.787 E16.36341
G1 X167.019 Y210.385 E16.41481
G1 X165.684 Y211.154 E16.49167
G1 X164.932 Y211.524 E16.53349
G1 X164.482 Y211.732 E16.55822
G1 X163.53 Y212.128 E16.60966
G1 X162.55 Y212.449 E16.66111
G1 X162.02 Y212.588 E16.68845
G1 X161.26 Y212.767 E16.7274
G1 X160.811 Y212.863 E16.75031
G1 X159.795 Y213.039 E16.80175
G1 X158.768 Y213.137 E16.85322
G1 X158.243 Y213.155 E16.87943
G1 X157.393 Y213.163 E16.92184
G1 X156.925 Y213.156 E16.94519
G1 X155.895 Y213.1 E16.99665
G1 X154.439 Y212.883 E17.07009
G1 X153.505 Y212.68 E17.11778
G1 X153.052 Y212.568 E17.14106
G1 X152.061 Y212.282 E17.19252
G1 X150.702 Y211.748 E17.26536
G1 X150.318 Y211.572 E17.28644
G1 X149.512 Y211.178 E17.3312
G1 X148.607 Y210.684 E17.38264
G1 X147.743 Y210.121 E17.43409
G1 X147.284 Y209.782 E17.46255
G1 X146.934 Y209.511 E17.48464
G1 X146.252 Y208.957 E17.52847
G1 X145.441 Y208.232 E17.58275
G1 X144.788 Y207.596 E17.62822
G1 X11.323 Y74.127 E27.04504
G1 X10.821 Y73.61 E27.08099
G1 X10.076 Y72.775 E27.13682
G1 X9.551 Y72.126 E27.17847
G1 X9.262 Y71.751 E27.20209
G1 X8.665 Y70.91 E27.25354
G1 X7.901 Y69.58 E27.33006
G1 X7.714 Y69.206 E27.35093
G1 X7.33 Y68.389 E27.39596
G1 X6.934 Y67.437 E27.4474
G1 X6.613 Y66.456 E27.4989
G1 X6.474 Y65.926 E27.52624
G1 X6.29 Y65.144 E27.56632
G1 X6.197 Y64.707 E27.58861
G1 X6.022 Y63.691 E27.64004
G1 X5.926 Y62.664 E27.6915
G1 X5.908 Y62.148 E27.71726
G1 X5.901 Y61.265 E27.76132
G1 X5.909 Y60.801 E27.78447
G1 X5.967 Y59.771 E27.83594
G1 X6.184 Y58.33 E27.90864
G1 X6.275 Y57.891 E27.93101
G1 X6.494 Y56.965 E27.97848
G1 X6.779 Y55.974 E28.02992
G1 X7.332 Y54.574 E28.10502
G1 X7.686 Y53.822 E28.14649
G1 X7.905 Y53.384 E28.17092
G1 X8.402 Y52.48 E28.22239
G1 X8.967 Y51.618 E28.27381
G1 X9.294 Y51.177 E28.3012
G1 X9.814 Y50.517 E28.34312
G1 X10.137 Y50.126 E28.36842
G1 X10.864 Y49.317 E28.42268
G1 X11.476 Y48.69 E28.46639
G1 X24.703 Y35.466 E29.39953
G1 X25.247 Y34.938 E29.43735
G1 X25.794 Y34.436 E29.47439
G1 X26.449 Y33.868 E29.51764
G1 X28.368 Y32.155 E29.64598
G1 X30.119 Y30.502 E29.76611
G0 F6000 X30.567 Y30.904
G1 F1200 X32.3 Y29.171 E29.88838
G1 X34.028 Y27.342 E30.01392
G1 X35.023 Y26.252 E30.08755
G1 X35.946 Y25.294 E30.15392
G1 X49.038 Y12.204 E31.07756
G1 X49.699 Y11.559 E31.12363
G1 X50.491 Y10.85 E31.17667
G1 X51.034 Y10.409 E31.21156
G1 X51.449 Y10.085 E31.23783
G1 X52.267 Y9.496 E31.28812
G1 X53.129 Y8.975 E31.33837
G1 X53.596 Y8.73 E31.36468
G1 X54.351 Y8.36 E31.40663
G1 X54.768 Y8.168 E31.42953
G1 X55.7 Y7.783 E31.47984
G1 X57.043 Y7.372 E31.54991
G1 X57.445 Y7.273 E31.57057
G1 X58.322 Y7.081 E31.61536
G1 X59.315 Y6.911 E31.66562
G1 X60.719 Y6.807 E31.73585
G1 X61.571 Y6.798 E31.77836
G1 X62.052 Y6.805 E31.80236
G1 X63.058 Y6.86 E31.85263
G1 X64.43 Y7.065 E31.92184
G1 X64.857 Y7.153 E31.94359
G1 X65.801 Y7.377 E31.99199
G1 X66.768 Y7.658 E32.04223
G1 X67.989 Y8.137 E32.10767
G1 X68.73 Y8.481 E32.14843
G1 X69.212 Y8.72 E32.17527
G1 X70.096 Y9.203 E32.22552
G1 X71.312 Y10.031 E32.29892
G1 X71.982 Y10.554 E32.34132
G1 X72.339 Y10.847 E32.36436
G1 X73.13 Y11.554 E32.41729
G1 X73.783 Y12.19 E32.46277
G1 X207.223 Y145.631 E41.87772
G1 X207.708 Y146.129 E41.9124
G1 X208.44 Y146.949 E41.96724
G1 X208.741 Y147.317 E41.99096
G1 X209.222 Y147.93 E42.02983
G1 X209.808 Y148.749 E42.08007
G1 X210.328 Y149.613 E42.13038
G1 X210.57 Y150.076 E42.15645
G1 X210.765 Y150.469 E42.17833
G1 X211.102 Y151.186 E42.21786
G1 X211.49 Y152.116 E42.26813
G1 X211.92 Y153.516 E42.3412
G1 X212.014 Y153.9 E42.36092
G1 X212.199 Y154.738 E42.40374
G1 X212.373 Y155.731 E42.45403
G1 X212.483 Y157.204 E42.52773
G1 X212.491 Y158.016 E42.56824
G1 X212.484 Y158.507 E42.59274
G1 X212.429 Y159.513 E42.643
G1 X212.221 Y160.902 E42.71307
G1 X212.028 Y161.789 E42.75836
G1 X211.914 Y162.251 E42.7821
G1 X211.634 Y163.219 E42.83238
G1 X211.128 Y164.502 E42.90118
G1 X210.782 Y165.24 E42.94185
G1 X210.552 Y165.701 E42.96755
G1 X210.067 Y166.584 E43.01781
G1 X209.236 Y167.798 E43.09121
G1 X208.726 Y168.447 E43.13239
G1 X208.388 Y168.856 E43.15886
G1 X207.708 Y169.614 E43.20966
G1 X207.139 Y170.199 E43.25038
G1 X193.963 Y183.374 E44.17998
G1 X193.369 Y183.954 E44.2214
G1 X192.817 Y184.462 E44.25883
G1 X192.096 Y185.087 E44.30643
G1 X190.201 Y186.778 E44.43314
G1 X188.426 Y188.455 E44.55497
G1 X186.651 Y190.231 E44.68024
G1 X184.978 Y192.001 E44.80175
G1 X183.892 Y193.19 E44.88209
G1 X183.055 Y194.057 E44.94221
G1 X169.957 Y207.153 E45.86627
G1 X169.295 Y207.799 E45.91242
G1 X168.467 Y208.538 E45.96779
G1 X168.145 Y208.801 E45.98853
G1 X167.491 Y209.312 E46.02994
G1 X166.67 Y209.896 E46.08021
G1 X165.415 Y210.618 E46.15244
G1 X164.681 Y210.979 E46.19325
G1 X164.231 Y211.187 E46.21798
G1 X163.3 Y211.573 E46.26826
G1 X161.879 Y212.005 E46.34236
G1 X161.456 Y212.107 E46.36407
G1 X160.685 Y212.276 E46.40345
G1 X159.692 Y212.448 E46.45373
G1 X158.233 Y212.555 E46.52671
G1 X157.402 Y212.563 E46.56817
G1 X156.934 Y212.556 E46.59152
G1 X155.928 Y212.501 E46.64179
G1 X154.561 Y212.296 E46.71075
G1 X153.649 Y212.098 E46.75731
G1 X153.196 Y211.986 E46.78059
G1 X152.228 Y211.705 E46.83088
G1 X150.952 Y211.202 E46.89931
G1 X150.212 Y210.856 E46.94006
G1 X149.779 Y210.641 E46.96418
G1 X148.895 Y210.157 E47.01446
G1 X147.652 Y209.308 E47.08956
G1 X147.006 Y208.801 E47.13053
G1 X146.633 Y208.494 E47.15463
G1 X145.858 Y207.801 E47.2065
G1 X145.347 Y207.305 E47.24203
G1 X11.754 Y73.709 E56.66784
G1 X11.252 Y73.192 E56.70379
G1 X10.54 Y72.395 E56.75711
G1 X10.263 Y72.057 E56.77891
G1 X9.738 Y71.384 E56.8215
G1 X9.155 Y70.562 E56.87177
G1 X8.438 Y69.312 E56.94367
G1 X8.08 Y68.583 E56.98419
G1 X7.874 Y68.137 E57.0087
G1 X7.488 Y67.206 E57.05898
G1 X7.057 Y65.785 E57.13306
G1 X6.877 Y65.02 E57.17227
G1 X6.784 Y64.583 E57.19456
G1 X6.614 Y63.589 E57.24487
G1 X6.508 Y62.139 E57.3174
G1 X6.501 Y61.275 E57.36051
G1 X6.509 Y60.811 E57.38366
G1 X6.566 Y59.805 E57.43393
G1 X6.771 Y58.452 E57.50221
G1 X6.967 Y57.55 E57.54826
G1 X7.076 Y57.108 E57.57097
G1 X7.356 Y56.14 E57.62124
G1 X7.877 Y54.825 E57.69181
G1 X8.223 Y54.09 E57.73234
G1 X8.442 Y53.652 E57.75677
G1 X8.928 Y52.77 E57.80701
G1 X9.768 Y51.545 E57.88111
G1 X10.035 Y51.201 E57.90284
G1 X10.6 Y50.509 E57.94741
G1 X11.294 Y49.735 E57.99927
G1 X11.9 Y49.114 E58.04256
G1 X24.986 Y36.029 E58.96582
G1 X25.665 Y35.369 E59.01306
G1 X26.187 Y34.889 E59.04844
G1 X26.892 Y34.277 E59.09501
G1 X28.755 Y32.615 E59.21957
G1 X30.567 Y30.904 E59.3439
G0 F6000 X30.978 Y31.341
G1 F1200 X32.736 Y29.583 E59.46794
G1 X34.455 Y27.764 E59.5928
G1 X35.466 Y26.656 E59.66763
G1 X36.371 Y25.718 E59.73266
G1 X49.574 Y12.518 E60.6641
G1 X50.117 Y11.989 E60.70192
G1 X50.872 Y11.313 E60.75248
G1 X51.403 Y10.881 E60.78663
G1 X51.818 Y10.557 E60.8129
G1 X52.617 Y9.984 E60.86195
G1 X53.864 Y9.267 E60.93371
G1 X54.602 Y8.905 E60.97472
G1 X55.019 Y8.713 E60.99763
G1 X55.929 Y8.338 E61.04673
G1 X57.187 Y7.955 E61.11234
G1 X57.974 Y7.768 E61.15269
G1 X58.446 Y7.668 E61.17677
G1 X59.416 Y7.503 E61.22585
G1 X60.73 Y7.407 E61.29158
G1 X61.562 Y7.398 E61.3331
G1 X62.043 Y7.405 E61.3571
G1 X63.025 Y7.46 E61.40616
G1 X64.309 Y7.653 E61.47094
G1 X65.204 Y7.847 E61.51663
G1 X65.656 Y7.959 E61.53986
G1 X66.601 Y8.234 E61.58897
G1 X67.741 Y8.683 E61.65009
G1 X68.463 Y9.018 E61.6898
G1 X68.945 Y9.257 E61.71664
G1 X69.808 Y9.73 E61.76574
G1 X70.946 Y10.506 E61.83446
G1 X71.301 Y10.779 E61.8568
G1 X71.958 Y11.311 E61.89898
G1 X72.712 Y11.984 E61.9494
G1 X73.359 Y12.614 E61.99445
G1 X206.793 Y146.05 E71.40901
G1 X207.278 Y146.548 E71.4437
G1 X207.976 Y147.329 E71.49595
G1 X208.277 Y147.697 E71.51967
G1 X208.748 Y148.298 E71.55777
G1 X209.32 Y149.098 E71.60683
G1 X210.032 Y150.343 E71.67839
G1 X210.362 Y151.017 E71.71583
G1 X210.558 Y151.439 E71.73904
G1 X210.936 Y152.347 E71.78811
G1 X211.337 Y153.659 E71.85655
G1 X211.506 Y154.368 E71.89292
G1 X211.613 Y154.864 E71.91823
G1 X211.781 Y155.834 E71.96734
G1 X211.883 Y157.214 E72.03638
G1 X211.891 Y158.007 E72.07595
G1 X211.884 Y158.498 E72.10044
G1 X211.83 Y159.481 E72.14956
G1 X211.633 Y160.78 E72.21511
G1 X211.446 Y161.645 E72.25926
G1 X211.332 Y162.107 E72.283
G1 X211.057 Y163.051 E72.33206
G1 X210.583 Y164.252 E72.39647
G1 X210.417 Y164.614 E72.41634
G1 X210.015 Y165.433 E72.46186
G1 X209.541 Y166.295 E72.51094
G1 X208.761 Y167.431 E72.57968
G1 X208.263 Y168.065 E72.61991
G1 X207.925 Y168.474 E72.64638
G1 X207.278 Y169.196 E72.69474
G1 X206.715 Y169.774 E72.735
G1 X193.43 Y183.057 E73.67226
G1 X192.95 Y183.525 E73.7057
G1 X192.424 Y184.008 E73.74133
G1 X191.73 Y184.609 E73.78713
G1 X189.795 Y186.337 E73.91656
G1 X187.996 Y188.036 E74.04001
G1 X186.233 Y189.8 E74.16444
G1 X184.537 Y191.594 E74.28761
G1 X183.451 Y192.784 E74.36798
G1 X182.63 Y193.633 E74.4269
G1 X169.421 Y206.839 E75.35876
G1 X168.877 Y207.369 E75.39666
G1 X168.087 Y208.073 E75.44945
G1 X167.512 Y208.537 E75.48631
G1 X167.124 Y208.837 E75.51078
G1 X166.322 Y209.407 E75.55987
G1 X165.146 Y210.082 E75.62752
G1 X164.775 Y210.268 E75.64822
G1 X163.979 Y210.642 E75.6921
G1 X163.07 Y211.019 E75.74119
G1 X161.738 Y211.422 E75.81062
G1 X161.009 Y211.594 E75.84799
G1 X160.56 Y211.69 E75.8709
G1 X159.59 Y211.856 E75.92
G1 X158.223 Y211.955 E75.98837
G1 X157.411 Y211.963 E76.02889
G1 X156.943 Y211.956 E76.05224
G1 X155.961 Y211.901 E76.10131
G1 X154.682 Y211.708 E76.16584
G1 X154.255 Y211.62 E76.18759
G1 X153.34 Y211.403 E76.23451
G1 X152.395 Y211.129 E76.28359
G1 X151.202 Y210.657 E76.3476
G1 X150.479 Y210.319 E76.38742
G1 X150.046 Y210.104 E76.41154
G1 X149.183 Y209.631 E76.46064
G1 X148.019 Y208.833 E76.53105
G1 X147.388 Y208.338 E76.57106
G1 X147.015 Y208.031 E76.59516
G1 X146.276 Y207.37 E76.64462
G1 X145.637 Y206.748 E76.68911
G1 X12.184 Y73.291 E86.10508
G1 X11.682 Y72.774 E86.14104
G1 X11.004 Y72.015 E86.19181
G1 X10.727 Y71.677 E86.21361
G1 X10.213 Y71.018 E86.25531
G1 X9.645 Y70.215 E86.30438
G1 X8.974 Y69.043 E86.37176
G1 X8.625 Y68.332 E86.41127
G1 X8.419 Y67.886 E86.43578
G1 X8.043 Y66.977 E86.48486
G1 X7.64 Y65.645 E86.55429
G1 X7.535 Y65.209 E86.57666
G1 X7.371 Y64.458 E86.61501
G1 X7.206 Y63.488 E86.6641
G1 X7.107 Y62.129 E86.73208
G1 X7.1 Y61.684 E86.75428
G1 X7.109 Y60.821 E86.79734
G1 X7.166 Y59.839 E86.84642
G1 X7.359 Y58.574 E86.91026
G1 X7.55 Y57.694 E86.95518
G1 X7.659 Y57.252 E86.97789
G1 X7.933 Y56.307 E87.02698
G1 X8.422 Y55.077 E87.09302
G1 X8.759 Y54.359 E87.13259
G1 X8.978 Y53.921 E87.15702
G1 X9.454 Y53.06 E87.2061
G1 X10.242 Y51.913 E87.27553
G1 X10.739 Y51.282 E87.3156
G1 X11.062 Y50.891 E87.34091
G1 X11.724 Y50.154 E87.39033
G1 X12.324 Y49.539 E87.4332
G1 X25.539 Y36.327 E88.36548
G1 X26.083 Y35.799 E88.4033
G1 X26.58 Y35.343 E88.43695
G1 X27.219 Y34.789 E88.47915
G1 X29.179 Y33.039 E88.61024
G1 X30.978 Y31.341 E88.73365
G0 F6000 X31.39 Y31.777
G1 F1200 X33.172 Y29.995 E88.85938
G1 X34.938 Y28.126 E88.98767
G1 X36.151 Y26.804 E89.07718
G1 X36.672 Y26.267 E89.11451
G1 X49.993 Y12.948 E90.05431
G1 X50.536 Y12.419 E90.09213
G1 X51.254 Y11.776 E90.14021
G1 X51.772 Y11.354 E90.17355
G1 X52.187 Y11.03 E90.19981
G1 X52.967 Y10.472 E90.24766
G1 X54.131 Y9.804 E90.31462
G1 X54.853 Y9.45 E90.35473
G1 X55.27 Y9.258 E90.37764
G1 X56.157 Y8.894 E90.42547
G1 X57.33 Y8.538 E90.48663
G1 X58.098 Y8.355 E90.52602
G1 X58.57 Y8.255 E90.55009
G1 X59.516 Y8.095 E90.59795
G1 X60.741 Y8.007 E90.65923
G1 X61.553 Y7.998 E90.69974
G1 X62.034 Y8.005 E90.72374
G1 X62.992 Y8.059 E90.77161
G1 X64.188 Y8.241 E90.83197
G1 X65.06 Y8.43 E90.87648
G1 X65.512 Y8.542 E90.89971
G1 X66.432 Y8.811 E90.94753
G1 X67.493 Y9.23 E91.00445
G1 X68.197 Y9.556 E91.04315
G1 X68.679 Y9.795 E91.06999
G1 X69.519 Y10.256 E91.1178
G1 X70.58 Y10.982 E91.18194
G1 X71.221 Y11.482 E91.22249
G1 X71.578 Y11.775 E91.24553
G1 X72.294 Y12.414 E91.29341
G1 X72.935 Y13.038 E91.33804
G1 X206.364 Y146.469 E100.75225
G1 X206.849 Y146.967 E100.78693
G1 X207.512 Y147.709 E100.83657
G1 X207.813 Y148.077 E100.86029
G1 X208.275 Y148.666 E100.89764
G1 X208.831 Y149.447 E100.94547
G1 X209.495 Y150.61 E101.01228
G1 X209.69 Y151.003 E101.03417
G1 X210.014 Y151.692 E101.07216
G1 X210.381 Y152.578 E101.12
G1 X210.754 Y153.802 E101.18384
G1 X210.919 Y154.495 E101.21938
G1 X211.026 Y154.991 E101.24469
G1 X211.189 Y155.936 E101.29254
G1 X211.283 Y157.224 E101.35697
G1 X211.291 Y157.999 E101.39563
G1 X211.284 Y158.49 E101.42013
G1 X211.23 Y159.447 E101.46795
G1 X211.046 Y160.659 E101.52911
G1 X210.863 Y161.501 E101.5721
G1 X210.749 Y161.963 E101.59584
G1 X210.481 Y162.884 E101.6437
G1 X210.037 Y164.002 E101.70371
G1 X209.708 Y164.704 E101.74239
G1 X209.478 Y165.165 E101.76809
G1 X209.015 Y166.005 E101.81594
G1 X208.287 Y167.064 E101.88006
G1 X207.801 Y167.683 E101.91932
