;FLAVOR:Marlin
;TIME:4289
;Filament used: 3.3986m
;Layer height: 0.16
;MINX:54.099
;MINY:66.765
;MINZ:0.2
;MAXX:170.901
;MAXY:158.016
;MAXZ:4.92
;Generated with Creality Slicer 4.8.2-205
M140 S70
M105
M190 S70
M104 S210
M105
M109 S210
M82 ;absolute extrusion mode

G28 ;Home

G92 E0 ;Reset Extruder
G1 Z2.0 F3000 ;Move Z Axis up
G1 X10.1 Y20 Z0.28 F5000.0 ;Move to start position
G1 X10.1 Y200.0 Z0.28 F1500.0 E15 ;Draw the first line
G1 X10.4 Y200.0 Z0.28 F5000.0 ;Move to side a little
G1 X10.4 Y20 Z0.28 F1500.0 E30 ;Draw the second line
G92 E0 ;Reset Extruder
G1 Z2.0 F3000 ;Move Z Axis up

G92 E0
G92 E0
G1 F1500 E-5
;LAYER_COUNT:34
;LAYER:0
M107
G0 F6000 X60.238 Y71.243 Z0.2
;TYPE:SKIRT
G1 F1500 E0
G1 F1200 X60.772 Y70.793 E0.03484
G1 X60.975 Y70.631 E0.0478
G1 X61.351 Y70.342 E0.07146
G1 X61.436 Y70.279 E0.07673
G1 X62.019 Y69.871 E0.11224
G1 X62.338 Y69.66 E0.13132
G1 X62.859 Y69.332 E0.16203
G1 X62.921 Y69.295 E0.16563
G1 X63.415 Y69.015 E0.19396
G1 X63.663 Y68.881 E0.20803
G1 X64.061 Y68.674 E0.23041
G1 X64.832 Y68.312 E0.2729
G1 X65.078 Y68.206 E0.28627
G1 X65.833 Y67.907 E0.32678
G1 X66.18 Y67.782 E0.34518
G1 X66.859 Y67.558 E0.38085
G1 X67.022 Y67.509 E0.38934
G1 X67.812 Y67.298 E0.43014
G1 X68.187 Y67.21 E0.44936
G1 X69.285 Y67 E0.50513
G1 X69.651 Y66.946 E0.52359
G1 X70.247 Y66.872 E0.55355
G1 X70.889 Y66.818 E0.58569
G1 X71.106 Y66.805 E0.59654
G1 X71.528 Y66.786 E0.61761
G1 X72.099 Y66.77 E0.64611
G1 X72.472 Y66.765 E0.66472
G1 X149.993 Y66.765 E4.53226
G1 X150.815 Y66.777 E4.57327
G1 X151.418 Y66.8 E4.60338
G1 X151.718 Y66.818 E4.61837
G1 X152.605 Y66.901 E4.66282
G1 X152.934 Y66.943 E4.67937
G1 X153.872 Y67.097 E4.72679
G1 X154.245 Y67.172 E4.74577
G1 X155.411 Y67.462 E4.80572
G1 X155.761 Y67.566 E4.82393
G1 X156.147 Y67.687 E4.84411
G1 X156.265 Y67.726 E4.85031
G1 X157.003 Y67.994 E4.88948
G1 X157.237 Y68.087 E4.90205
G1 X157.598 Y68.237 E4.92155
G1 X157.73 Y68.294 E4.92872
G1 X158.385 Y68.598 E4.96475
G1 X158.626 Y68.718 E4.97818
G1 X158.973 Y68.897 E4.99766
G1 X159.087 Y68.958 E5.00411
G1 X159.774 Y69.353 E5.04365
G1 X160.01 Y69.498 E5.05747
G1 X160.374 Y69.73 E5.079
G1 X160.474 Y69.796 E5.08498
G1 X161.064 Y70.208 E5.12088
G1 X161.33 Y70.405 E5.13739
G1 X161.692 Y70.683 E5.16017
G1 X161.775 Y70.749 E5.16546
G1 X162.35 Y71.234 E5.20299
G1 X162.563 Y71.424 E5.21723
G1 X162.88 Y71.715 E5.23869
G1 X162.963 Y71.794 E5.24441
G1 X163.438 Y72.27 E5.27796
G1 X163.626 Y72.468 E5.29158
G1 X163.927 Y72.796 E5.31379
G1 X164.022 Y72.903 E5.32093
G1 X164.472 Y73.437 E5.35577
G1 X164.63 Y73.635 E5.36841
G1 X164.954 Y74.058 E5.39499
G1 X165.387 Y74.674 E5.43256
G1 X165.591 Y74.982 E5.45099
G1 X165.881 Y75.439 E5.47799
G1 X165.927 Y75.515 E5.48242
G1 X166.25 Y76.08 E5.51489
G1 X166.384 Y76.328 E5.52895
G1 X166.591 Y76.726 E5.55134
G1 X166.956 Y77.503 E5.59416
G1 X167.061 Y77.747 E5.60742
G1 X167.209 Y78.106 E5.62679
G1 X167.27 Y78.26 E5.63505
G1 X167.522 Y78.952 E5.6718
G1 X167.587 Y79.147 E5.68205
G1 X167.7 Y79.502 E5.70064
G1 X167.749 Y79.664 E5.70908
G1 X167.969 Y80.484 E5.75144
G1 X168.057 Y80.86 E5.7707
G1 X168.265 Y81.95 E5.82606
G1 X168.319 Y82.316 E5.84452
G1 X168.39 Y82.878 E5.87278
G1 X168.449 Y83.59 E5.90843
G1 X168.462 Y83.818 E5.91982
G1 X168.478 Y84.173 E5.93755
G1 X168.515 Y85.394 E5.99849
G1 X168.625 Y87.91 E6.12414
G1 X168.803 Y90.352 E6.24629
G1 X169.053 Y92.827 E6.3704
G1 X169.364 Y95.231 E6.49133
G1 X169.745 Y97.632 E6.61262
G1 X170.201 Y100.065 E6.73612
G1 X170.456 Y101.239 E6.79605
G1 X170.628 Y102.087 E6.83922
G1 X170.792 Y103.105 E6.89066
G1 X170.884 Y104.323 E6.9516
G1 X170.894 Y104.663 E6.96857
G1 X170.9 Y105.052 E6.98798
G1 X170.901 Y113.401 E7.40452
G1 X170.888 Y114.321 E7.45042
G1 X170.833 Y115.351 E7.50188
G1 X170.697 Y116.373 E7.55332
G1 X170.59 Y116.923 E7.58127
G1 X170.441 Y117.615 E7.61659
G1 X169.926 Y120.185 E7.74735
G1 X169.524 Y122.538 E7.86645
G1 X169.176 Y124.985 E7.98976
G1 X168.898 Y127.443 E8.11317
G1 X168.691 Y129.871 E8.23474
G1 X168.554 Y132.316 E8.35691
G1 X168.502 Y134.155 E8.4487
G1 X168.486 Y134.576 E8.46972
G1 X168.472 Y134.862 E8.484
G1 X168.448 Y135.265 E8.50414
G1 X168.368 Y136.138 E8.54788
G1 X168.325 Y136.479 E8.56503
G1 X168.157 Y137.492 E8.61626
G1 X168.082 Y137.857 E8.63485
G1 X167.958 Y138.401 E8.66268
G1 X167.786 Y139.036 E8.69551
G1 X167.695 Y139.341 E8.71139
G1 X167.527 Y139.864 E8.73879
G1 X167.278 Y140.549 E8.77515
G1 X167.191 Y140.769 E8.78696
G1 X167.039 Y141.138 E8.80687
G1 X166.977 Y141.282 E8.81469
G1 X166.668 Y141.949 E8.85136
G1 X166.557 Y142.172 E8.86379
G1 X166.331 Y142.606 E8.8882
G1 X165.906 Y143.349 E8.93091
G1 X165.762 Y143.583 E8.94461
G1 X165.535 Y143.939 E8.96568
G1 X165.469 Y144.039 E8.97166
G1 X165.057 Y144.629 E9.00756
G1 X164.86 Y144.895 E9.02407
G1 X164.582 Y145.257 E9.04684
G1 X164.516 Y145.34 E9.05213
G1 X164.031 Y145.915 E9.08966
G1 X163.841 Y146.128 E9.1039
G1 X163.542 Y146.453 E9.12594
G1 X163.46 Y146.539 E9.13186
G1 X162.988 Y147.01 E9.16513
G1 X162.793 Y147.195 E9.17854
G1 X162.469 Y147.492 E9.20047
G1 X162.362 Y147.587 E9.20761
G1 X161.828 Y148.037 E9.24245
G1 X161.625 Y148.199 E9.2554
G1 X161.249 Y148.488 E9.27906
G1 X161.164 Y148.551 E9.28434
G1 X160.581 Y148.959 E9.31984
G1 X160.262 Y149.17 E9.33892
G1 X159.741 Y149.498 E9.36964
G1 X159.679 Y149.535 E9.37324
G1 X159.185 Y149.815 E9.40157
G1 X158.937 Y149.949 E9.41563
G1 X158.539 Y150.156 E9.43802
G1 X157.762 Y150.521 E9.48084
G1 X157.518 Y150.626 E9.4941
G1 X156.777 Y150.919 E9.53385
G1 X156.428 Y151.045 E9.55236
G1 X155.734 Y151.274 E9.58882
G1 X155.574 Y151.322 E9.59716
G1 X154.8 Y151.529 E9.63713
G1 X154.422 Y151.618 E9.6565
G1 X153.315 Y151.83 E9.71273
G1 X152.949 Y151.884 E9.73119
G1 X152.353 Y151.958 E9.76116
G1 X151.711 Y152.012 E9.7933
G1 X151.494 Y152.025 E9.80414
G1 X151.104 Y152.043 E9.82362
G1 X150.579 Y152.059 E9.84983
G1 X150.174 Y152.065 E9.87003
G1 X149.724 Y152.065 E9.89248
G1 X147.142 Y152.102 E10.02131
G1 X144.718 Y152.204 E10.14235
G1 X142.242 Y152.38 E10.26619
G1 X139.807 Y152.621 E10.38827
G1 X137.414 Y152.928 E10.50864
G1 X134.953 Y153.315 E10.63293
G1 X132.552 Y153.761 E10.75476
G1 X130.186 Y154.27 E10.8755
G1 X127.785 Y154.858 E10.99883
G1 X125.412 Y155.511 E11.12162
G1 X123.051 Y156.234 E11.24481
G1 X120.717 Y157.021 E11.36769
G1 X120.317 Y157.166 E11.38892
G1 X119.896 Y157.31 E11.41112
G1 X119.714 Y157.369 E11.42066
G1 X118.722 Y157.649 E11.47209
G1 X117.71 Y157.851 E11.52357
G1 X116.686 Y157.974 E11.57503
G1 X115.354 Y158.014 E11.64151
G1 X114.669 Y158 E11.67569
G1 X113.039 Y157.947 E11.75706
G1 X110.579 Y157.938 E11.87979
G1 X108.733 Y157.983 E11.97191
G1 X108.614 Y157.981 E11.97785
G1 X107.424 Y158.016 E12.03725
G1 X106.393 Y158.006 E12.08868
G1 X105.365 Y157.917 E12.14016
G1 X104.348 Y157.748 E12.1916
G1 X102.895 Y157.361 E12.26662
G1 X101.775 Y156.994 E12.32542
G1 X101.51 Y156.904 E12.33938
G1 X100.552 Y156.568 E12.39003
G1 X98.201 Y155.816 E12.51317
G1 X95.857 Y155.139 E12.6349
G1 X93.449 Y154.518 E12.75896
G1 X91.071 Y153.973 E12.88068
G1 X88.701 Y153.504 E13.00121
G1 X86.242 Y153.087 E13.12564
G1 X83.85 Y152.751 E13.24615
G1 X81.394 Y152.476 E13.36945
G1 X78.944 Y152.272 E13.4921
G1 X76.549 Y152.141 E13.61177
G1 X72.807 Y152.066 E13.79849
G1 X72.616 Y152.065 E13.80802
G1 X71.782 Y152.053 E13.84963
G1 X71.192 Y152.031 E13.87909
G1 X70.937 Y152.016 E13.89183
G1 X70.433 Y151.977 E13.91705
G1 X69.738 Y151.897 E13.95196
G1 X69.477 Y151.86 E13.96511
G1 X68.781 Y151.743 E14.00032
G1 X68.506 Y151.689 E14.0143
G1 X67.715 Y151.508 E14.05478
G1 X67.408 Y151.428 E14.07061
G1 X66.739 Y151.235 E14.10535
G1 X66.531 Y151.169 E14.11624
G1 X65.776 Y150.904 E14.15616
G1 X65.563 Y150.822 E14.16754
G1 X65.163 Y150.661 E14.18906
G1 X64.969 Y150.579 E14.19956
G1 X64.349 Y150.298 E14.23352
G1 X64.221 Y150.236 E14.24062
G1 X63.854 Y150.051 E14.26112
G1 X63.659 Y149.949 E14.2721
G1 X63.071 Y149.622 E14.30567
G1 X62.864 Y149.5 E14.31766
G1 X62.137 Y149.039 E14.3606
G1 X61.84 Y148.837 E14.37852
G1 X61.148 Y148.333 E14.42123
G1 X60.922 Y148.157 E14.43553
G1 X59.963 Y147.335 E14.49854
G1 X59.605 Y146.997 E14.5231
G1 X58.983 Y146.369 E14.5672
G1 X58.843 Y146.218 E14.57747
G1 X58.328 Y145.628 E14.61655
G1 X58.044 Y145.283 E14.63884
G1 X57.508 Y144.587 E14.68267
G1 X57.452 Y144.509 E14.68746
G1 X57.146 Y144.063 E14.71444
G1 X56.994 Y143.832 E14.72824
G1 X56.577 Y143.155 E14.76791
G1 X56.341 Y142.738 E14.79181
G1 X56.236 Y142.545 E14.80277
G1 X55.938 Y141.964 E14.83535
G1 X55.871 Y141.825 E14.84305
G1 X55.675 Y141.4 E14.8664
G1 X55.57 Y141.161 E14.87942
G1 X55.208 Y140.246 E14.92851
G1 X55.092 Y139.918 E14.94587
G1 X54.815 Y139.038 E14.9919
G1 X54.729 Y138.728 E15.00795
G1 X54.588 Y138.173 E15.03652
G1 X54.541 Y137.97 E15.04691
G1 X54.37 Y137.1 E15.09115
G1 X54.327 Y136.835 E15.10454
G1 X54.221 Y136.024 E15.14535
G1 X54.192 Y135.733 E15.15994
G1 X54.154 Y135.274 E15.18291
G1 X54.138 Y135.027 E15.19526
G1 X54.111 Y134.351 E15.22902
G1 X54.099 Y133.374 E15.27776
G1 X54.1 Y85.272 E17.67758
G1 X54.112 Y84.451 E17.71854
G1 X54.135 Y83.854 E17.74835
G1 X54.153 Y83.552 E17.76345
G1 X54.237 Y82.654 E17.80844
G1 X54.279 Y82.326 E17.82494
G1 X54.453 Y81.292 E17.87725
G1 X54.54 Y80.876 E17.89845
G1 X54.818 Y79.781 E17.95482
G1 X54.91 Y79.474 E17.97081
G1 X55.042 Y79.058 E17.99258
G1 X55.087 Y78.924 E17.99963
G1 X55.35 Y78.209 E18.03764
G1 X55.439 Y77.987 E18.04957
G1 X55.619 Y77.557 E18.07283
G1 X55.943 Y76.86 E18.11118
G1 X56.067 Y76.612 E18.12501
G1 X56.239 Y76.279 E18.14371
G1 X56.299 Y76.167 E18.15005
G1 X56.693 Y75.483 E18.18943
G1 X56.835 Y75.252 E18.20296
G1 X57.065 Y74.891 E18.22431
G1 X57.131 Y74.791 E18.23029
G1 X57.559 Y74.18 E18.26751
G1 X57.765 Y73.903 E18.28473
G1 X58.066 Y73.513 E18.30931
G1 X58.569 Y72.915 E18.34829
G1 X58.759 Y72.702 E18.36253
G1 X59.104 Y72.329 E18.38788
G1 X59.648 Y71.785 E18.42626
G1 X59.839 Y71.605 E18.43936
G1 X60.131 Y71.338 E18.4591
G1 X60.238 Y71.243 E18.46624
G0 F6000 X60.636 Y71.692
G1 F1200 X61.146 Y71.262 E18.49952
G1 X61.349 Y71.1 E18.51248
G1 X61.794 Y70.761 E18.54038
G1 X62.35 Y70.371 E18.57427
G1 X62.669 Y70.16 E18.59335
G1 X63.167 Y69.847 E18.62269
G1 X63.229 Y69.81 E18.6263
G1 X63.7 Y69.543 E18.65331
G1 X63.948 Y69.409 E18.66737
G1 X64.333 Y69.208 E18.68904
G1 X65.069 Y68.863 E18.72959
G1 X65.315 Y68.757 E18.74296
G1 X66.037 Y68.472 E18.78168
G1 X66.384 Y68.347 E18.80008
G1 X67.032 Y68.133 E18.83413
G1 X67.195 Y68.084 E18.84262
G1 X67.95 Y67.882 E18.88161
G1 X68.325 Y67.794 E18.90083
G1 X69.372 Y67.594 E18.95401
G1 X69.738 Y67.54 E18.97247
G1 X70.22 Y67.478 E18.99671
G1 X70.312 Y67.468 E19.00133
G1 X70.925 Y67.417 E19.03202
G1 X71.142 Y67.404 E19.04286
G1 X71.545 Y67.386 E19.06299
G1 X72.116 Y67.37 E19.09149
G1 X72.472 Y67.365 E19.10925
G1 X149.799 Y67.364 E22.96711
G1 X150.806 Y67.377 E23.01735
G1 X151.382 Y67.399 E23.04611
G1 X151.682 Y67.417 E23.0611
G1 X152.529 Y67.496 E23.10354
G1 X152.858 Y67.538 E23.12009
G1 X153.754 Y67.685 E23.16539
G1 X154.127 Y67.76 E23.18437
G1 X155.24 Y68.037 E23.24159
G1 X155.59 Y68.141 E23.25981
G1 X156.076 Y68.296 E23.28526
G1 X156.782 Y68.552 E23.32273
G1 X157.016 Y68.645 E23.33529
G1 X157.36 Y68.788 E23.35387
G1 X157.492 Y68.845 E23.36105
G1 X158.118 Y69.135 E23.39547
G1 X158.359 Y69.255 E23.4089
G1 X158.804 Y69.487 E23.43394
G1 X159.46 Y69.864 E23.47168
G1 X159.696 Y70.009 E23.4855
G1 X160.044 Y70.23 E23.50607
G1 X160.144 Y70.296 E23.51205
G1 X160.706 Y70.69 E23.54629
G1 X160.972 Y70.887 E23.5628
G1 X161.401 Y71.219 E23.58987
G1 X161.951 Y71.682 E23.62574
G1 X162.164 Y71.872 E23.63998
G1 X162.466 Y72.15 E23.66045
G1 X162.549 Y72.229 E23.66617
G1 X163.003 Y72.683 E23.6982
G1 X163.191 Y72.881 E23.71182
G1 X163.478 Y73.194 E23.73301
G1 X163.573 Y73.301 E23.74015
G1 X164.003 Y73.812 E23.77347
G1 X164.161 Y74.01 E23.78611
G1 X164.473 Y74.417 E23.81169
G1 X164.887 Y75.005 E23.84757
G1 X165.091 Y75.313 E23.866
G1 X165.368 Y75.75 E23.89181
G1 X165.414 Y75.826 E23.89624
G1 X165.722 Y76.365 E23.92722
G1 X165.856 Y76.613 E23.94128
G1 X166.057 Y76.998 E23.96295
G1 X166.405 Y77.74 E24.00384
G1 X166.51 Y77.984 E24.01709
G1 X166.651 Y78.327 E24.03559
G1 X166.712 Y78.481 E24.04385
G1 X166.953 Y79.142 E24.07895
G1 X167.018 Y79.337 E24.08921
G1 X167.126 Y79.676 E24.10696
G1 X167.175 Y79.838 E24.1154
G1 X167.385 Y80.621 E24.15585
G1 X167.473 Y80.997 E24.17511
G1 X167.671 Y82.037 E24.22793
G1 X167.725 Y82.403 E24.24639
G1 X167.793 Y82.945 E24.27364
G1 X167.85 Y83.624 E24.30764
G1 X167.863 Y83.852 E24.31903
G1 X167.878 Y84.191 E24.33596
G1 X167.913 Y85.364 E24.39451
G1 X168.027 Y87.947 E24.5235
G1 X168.206 Y90.417 E24.64705
G1 X168.456 Y92.895 E24.77131
G1 X168.768 Y95.297 E24.89215
G1 X169.159 Y97.767 E25.01691
G1 X169.614 Y100.192 E25.14001
G1 X169.908 Y101.55 E25.20933
G1 X170.04 Y102.205 E25.24266
G1 X170.199 Y103.2 E25.29293
G1 X170.285 Y104.341 E25.35002
G1 X170.295 Y104.681 E25.36699
G1 X170.3 Y105.052 E25.3855
G1 X170.301 Y113.401 E25.80203
G1 X170.288 Y114.312 E25.84749
G1 X170.233 Y115.318 E25.89775
G1 X170.004 Y116.796 E25.97237
G1 X169.852 Y117.501 E26.00835
G1 X169.337 Y120.07 E26.13907
G1 X168.929 Y122.458 E26.25993
G1 X168.576 Y124.942 E26.3851
G1 X168.303 Y127.359 E26.50646
G1 X168.093 Y129.821 E26.62973
G1 X167.954 Y132.3 E26.7536
G1 X167.903 Y134.132 E26.84504
G1 X167.887 Y134.553 E26.86606
G1 X167.874 Y134.826 E26.87969
G1 X167.85 Y135.229 E26.89983
G1 X167.772 Y136.063 E26.94162
G1 X167.729 Y136.404 E26.95877
G1 X167.569 Y137.371 E27.00767
G1 X167.494 Y137.736 E27.02626
G1 X167.375 Y138.258 E27.05297
G1 X167.211 Y138.864 E27.08429
G1 X167.12 Y139.169 E27.10017
G1 X166.998 Y139.554 E27.12032
G1 X166.958 Y139.674 E27.12663
G1 X166.72 Y140.328 E27.16135
G1 X166.633 Y140.548 E27.17316
G1 X166.488 Y140.9 E27.19215
G1 X166.426 Y141.044 E27.19997
G1 X166.13 Y141.681 E27.23502
G1 X166.019 Y141.904 E27.24744
G1 X165.872 Y142.191 E27.26353
G1 X165.801 Y142.325 E27.2711
G1 X165.395 Y143.035 E27.3119
G1 X165.251 Y143.269 E27.32561
G1 X165.035 Y143.609 E27.3457
G1 X164.969 Y143.709 E27.35168
G1 X164.575 Y144.271 E27.38592
G1 X164.378 Y144.537 E27.40244
G1 X164.046 Y144.966 E27.4295
G1 X163.583 Y145.516 E27.46537
G1 X163.393 Y145.729 E27.47961
G1 X163.107 Y146.039 E27.50065
G1 X163.025 Y146.125 E27.50658
G1 X162.575 Y146.574 E27.5383
G1 X162.38 Y146.759 E27.55171
G1 X162.071 Y147.043 E27.57264
G1 X161.964 Y147.138 E27.57978
G1 X161.454 Y147.568 E27.61306
G1 X161.251 Y147.73 E27.62602
G1 X160.806 Y148.069 E27.65393
G1 X160.25 Y148.459 E27.68781
G1 X159.931 Y148.67 E27.70689
G1 X159.433 Y148.983 E27.73624
G1 X159.371 Y149.02 E27.73984
G1 X158.9 Y149.287 E27.76685
G1 X158.652 Y149.421 E27.78092
G1 X158.267 Y149.622 E27.80258
G1 X157.525 Y149.97 E27.84347
G1 X157.281 Y150.075 E27.85672
G1 X156.574 Y150.354 E27.89464
G1 X156.225 Y150.48 E27.91316
G1 X155.561 Y150.699 E27.94804
G1 X155.401 Y150.747 E27.95637
G1 X154.663 Y150.945 E27.99449
G1 X154.285 Y151.034 E28.01387
G1 X153.228 Y151.236 E28.06756
G1 X152.862 Y151.29 E28.08601
G1 X152.38 Y151.352 E28.11026
G1 X152.288 Y151.362 E28.11487
G1 X151.675 Y151.413 E28.14556
G1 X151.458 Y151.426 E28.15641
G1 X151.086 Y151.443 E28.17499
G1 X150.561 Y151.459 E28.20119
G1 X150.174 Y151.465 E28.2205
G1 X149.716 Y151.465 E28.24335
G1 X147.144 Y151.501 E28.37168
G1 X144.649 Y151.607 E28.49627
G1 X142.214 Y151.78 E28.61806
G1 X139.742 Y152.025 E28.74199
G1 X137.315 Y152.336 E28.86407
G1 X134.854 Y152.722 E28.98835
G1 X132.453 Y153.169 E29.11019
G1 X130.036 Y153.689 E29.23353
G1 X127.621 Y154.281 E29.35759
G1 X125.246 Y154.934 E29.48047
G1 X122.873 Y155.66 E29.60428
G1 X120.497 Y156.462 E29.72939
G1 X120.113 Y156.601 E29.74976
G1 X119.711 Y156.739 E29.77097
G1 X119.529 Y156.798 E29.78051
G1 X118.559 Y157.071 E29.83079
G1 X117.57 Y157.265 E29.88107
G1 X116.569 Y157.381 E29.93134
G1 X115.366 Y157.415 E29.99138
G1 X114.688 Y157.4 E30.02522
G1 X113.061 Y157.347 E30.10643
G1 X110.567 Y157.338 E30.23086
G1 X108.718 Y157.383 E30.32313
G1 X108.621 Y157.382 E30.32797
G1 X107.406 Y157.417 E30.38862
G1 X106.399 Y157.406 E30.43886
G1 X105.395 Y157.316 E30.48915
G1 X104.402 Y157.146 E30.53941
G1 X103.081 Y156.791 E30.60765
G1 X101.961 Y156.424 E30.66645
